{
 "compressionlevel": -1,
 "width": 80,
 "height": 50,
 "tilewidth": 16,
 "tileheight": 16,
 "infinite": false,
 "orientation": "orthogonal",
 "renderorder": "right-down",
 "type": "map",
 "version": "1.10",
 "tiledversion": "1.12.2",
 "nextlayerid": 5,
 "nextobjectid": 367,
 "tilesets": [
  {
   "firstgid": 1,
   "name": "ground_grasss",
   "image": "../../src/assets/tilemaps/biomas/grasslands/ground_grasss.png",
   "columns": 53,
   "tilecount": 742,
   "imagewidth": 848,
   "imageheight": 224,
   "tilewidth": 16,
   "tileheight": 16,
   "margin": 0,
   "spacing": 0
  },
  {
   "firstgid": 743,
   "name": "Water_coasts",
   "image": "../../src/assets/tilemaps/biomas/grasslands/Water_coasts.png",
   "columns": 39,
   "tilecount": 1716,
   "imagewidth": 624,
   "imageheight": 704,
   "tilewidth": 16,
   "tileheight": 16,
   "margin": 0,
   "spacing": 0
  },
  {
   "firstgid": 2459,
   "name": "Water_detilazation",
   "image": "../../src/assets/tilemaps/biomas/grasslands/water_detilazation.png",
   "columns": 37,
   "tilecount": 2886,
   "imagewidth": 592,
   "imageheight": 1248,
   "tilewidth": 16,
   "tileheight": 16,
   "margin": 0,
   "spacing": 0
  },
  {
   "firstgid": 5345,
   "name": "Trees_rocks",
   "image": "../../src/assets/tilemaps/biomas/grasslands/Trees_rocks.png",
   "columns": 16,
   "tilecount": 544,
   "imagewidth": 256,
   "imageheight": 544,
   "tilewidth": 16,
   "tileheight": 16,
   "margin": 0,
   "spacing": 0
  },
  {
   "firstgid": 5889,
   "name": "Details",
   "image": "../../src/assets/tilemaps/biomas/grasslands/Details.png",
   "columns": 12,
   "tilecount": 168,
   "imagewidth": 192,
   "imageheight": 224,
   "tilewidth": 16,
   "tileheight": 16,
   "margin": 0,
   "spacing": 0
  }
 ],
 "layers": [
  {
   "id": 1,
   "name": "Colisiones",
   "type": "objectgroup",
   "visible": true,
   "opacity": 1,
   "x": 0,
   "y": 0,
   "draworder": "topdown",
   "properties": [
    {
     "name": "collides",
     "type": "bool",
     "value": true
    }
   ],
   "objects": [
    {
     "id": 1,
     "name": "",
     "type": "",
     "visible": true,
     "rotation": 0,
     "x": 0,
     "y": 0,
     "width": 1280,
     "height": 16
    },
    {
     "id": 2,
     "name": "",
     "type": "",
     "visible": true,
     "rotation": 0,
     "x": 0,
     "y": 16,
     "width": 16,
     "height": 16
    },
    {
     "id": 3,
     "name": "",
     "type": "",
     "visible": true,
     "rotation": 0,
     "x": 1264,
     "y": 16,
     "width": 16,
     "height": 16
    },
    {
     "id": 4,
     "name": "",
     "type": "",
     "visible": true,
     "rotation": 0,
     "x": 0,
     "y": 32,
     "width": 16,
     "height": 16
    },
    {
     "id": 5,
     "name": "",
     "type": "",
     "visible": true,
     "rotation": 0,
     "x": 1264,
     "y": 32,
     "width": 16,
     "height": 16
    },
    {
     "id": 6,
     "name": "",
     "type": "",
     "visible": true,
     "rotation": 0,
     "x": 0,
     "y": 48,
     "width": 16,
     "height": 16
    },
    {
     "id": 7,
     "name": "",
     "type": "",
     "visible": true,
     "rotation": 0,
     "x": 1264,
     "y": 48,
     "width": 16,
     "height": 16
    },
    {
     "id": 8,
     "name": "",
     "type": "",
     "visible": true,
     "rotation": 0,
     "x": 0,
     "y": 64,
     "width": 16,
     "height": 16
    },
    {
     "id": 9,
     "name": "",
     "type": "",
     "visible": true,
     "rotation": 0,
     "x": 1264,
     "y": 64,
     "width": 16,
     "height": 16
    },
    {
     "id": 10,
     "name": "",
     "type": "",
     "visible": true,
     "rotation": 0,
     "x": 0,
     "y": 80,
     "width": 16,
     "height": 16
    },
    {
     "id": 11,
     "name": "",
     "type": "",
     "visible": true,
     "rotation": 0,
     "x": 128,
     "y": 80,
     "width": 160,
     "height": 16
    },
    {
     "id": 12,
     "name": "",
     "type": "",
     "visible": true,
     "rotation": 0,
     "x": 1264,
     "y": 80,
     "width": 16,
     "height": 16
    },
    {
     "id": 13,
     "name": "",
     "type": "",
     "visible": true,
     "rotation": 0,
     "x": 0,
     "y": 96,
     "width": 16,
     "height": 16
    },
    {
     "id": 14,
     "name": "",
     "type": "",
     "visible": true,
     "rotation": 0,
     "x": 112,
     "y": 96,
     "width": 192,
     "height": 16
    },
    {
     "id": 15,
     "name": "",
     "type": "",
     "visible": true,
     "rotation": 0,
     "x": 1264,
     "y": 96,
     "width": 16,
     "height": 16
    },
    {
     "id": 16,
     "name": "",
     "type": "",
     "visible": true,
     "rotation": 0,
     "x": 0,
     "y": 112,
     "width": 16,
     "height": 16
    },
    {
     "id": 17,
     "name": "",
     "type": "",
     "visible": true,
     "rotation": 0,
     "x": 112,
     "y": 112,
     "width": 192,
     "height": 16
    },
    {
     "id": 18,
     "name": "",
     "type": "",
     "visible": true,
     "rotation": 0,
     "x": 1264,
     "y": 112,
     "width": 16,
     "height": 16
    },
    {
     "id": 19,
     "name": "",
     "type": "",
     "visible": true,
     "rotation": 0,
     "x": 0,
     "y": 128,
     "width": 16,
     "height": 16
    },
    {
     "id": 20,
     "name": "",
     "type": "",
     "visible": true,
     "rotation": 0,
     "x": 112,
     "y": 128,
     "width": 192,
     "height": 16
    },
    {
     "id": 21,
     "name": "",
     "type": "",
     "visible": true,
     "rotation": 0,
     "x": 704,
     "y": 128,
     "width": 96,
     "height": 16
    },
    {
     "id": 22,
     "name": "",
     "type": "",
     "visible": true,
     "rotation": 0,
     "x": 1264,
     "y": 128,
     "width": 16,
     "height": 16
    },
    {
     "id": 23,
     "name": "",
     "type": "",
     "visible": true,
     "rotation": 0,
     "x": 0,
     "y": 144,
     "width": 16,
     "height": 16
    },
    {
     "id": 24,
     "name": "",
     "type": "",
     "visible": true,
     "rotation": 0,
     "x": 112,
     "y": 144,
     "width": 192,
     "height": 16
    },
    {
     "id": 25,
     "name": "",
     "type": "",
     "visible": true,
     "rotation": 0,
     "x": 688,
     "y": 144,
     "width": 128,
     "height": 16
    },
    {
     "id": 26,
     "name": "",
     "type": "",
     "visible": true,
     "rotation": 0,
     "x": 1264,
     "y": 144,
     "width": 16,
     "height": 16
    },
    {
     "id": 27,
     "name": "",
     "type": "",
     "visible": true,
     "rotation": 0,
     "x": 0,
     "y": 160,
     "width": 16,
     "height": 16
    },
    {
     "id": 28,
     "name": "",
     "type": "",
     "visible": true,
     "rotation": 0,
     "x": 112,
     "y": 160,
     "width": 192,
     "height": 16
    },
    {
     "id": 29,
     "name": "",
     "type": "",
     "visible": true,
     "rotation": 0,
     "x": 688,
     "y": 160,
     "width": 128,
     "height": 16
    },
    {
     "id": 30,
     "name": "",
     "type": "",
     "visible": true,
     "rotation": 0,
     "x": 1264,
     "y": 160,
     "width": 16,
     "height": 16
    },
    {
     "id": 31,
     "name": "",
     "type": "",
     "visible": true,
     "rotation": 0,
     "x": 0,
     "y": 176,
     "width": 16,
     "height": 16
    },
    {
     "id": 32,
     "name": "",
     "type": "",
     "visible": true,
     "rotation": 0,
     "x": 112,
     "y": 176,
     "width": 192,
     "height": 16
    },
    {
     "id": 33,
     "name": "",
     "type": "",
     "visible": true,
     "rotation": 0,
     "x": 688,
     "y": 176,
     "width": 128,
     "height": 16
    },
    {
     "id": 34,
     "name": "",
     "type": "",
     "visible": true,
     "rotation": 0,
     "x": 1264,
     "y": 176,
     "width": 16,
     "height": 16
    },
    {
     "id": 35,
     "name": "",
     "type": "",
     "visible": true,
     "rotation": 0,
     "x": 0,
     "y": 192,
     "width": 16,
     "height": 16
    },
    {
     "id": 36,
     "name": "",
     "type": "",
     "visible": true,
     "rotation": 0,
     "x": 112,
     "y": 192,
     "width": 192,
     "height": 16
    },
    {
     "id": 37,
     "name": "",
     "type": "",
     "visible": true,
     "rotation": 0,
     "x": 688,
     "y": 192,
     "width": 128,
     "height": 16
    },
    {
     "id": 38,
     "name": "",
     "type": "",
     "visible": true,
     "rotation": 0,
     "x": 1264,
     "y": 192,
     "width": 16,
     "height": 16
    },
    {
     "id": 39,
     "name": "",
     "type": "",
     "visible": true,
     "rotation": 0,
     "x": 0,
     "y": 208,
     "width": 16,
     "height": 16
    },
    {
     "id": 40,
     "name": "",
     "type": "",
     "visible": true,
     "rotation": 0,
     "x": 112,
     "y": 208,
     "width": 192,
     "height": 16
    },
    {
     "id": 41,
     "name": "",
     "type": "",
     "visible": true,
     "rotation": 0,
     "x": 704,
     "y": 208,
     "width": 96,
     "height": 16
    },
    {
     "id": 42,
     "name": "",
     "type": "",
     "visible": true,
     "rotation": 0,
     "x": 1264,
     "y": 208,
     "width": 16,
     "height": 16
    },
    {
     "id": 43,
     "name": "",
     "type": "",
     "visible": true,
     "rotation": 0,
     "x": 0,
     "y": 224,
     "width": 16,
     "height": 16
    },
    {
     "id": 44,
     "name": "",
     "type": "",
     "visible": true,
     "rotation": 0,
     "x": 128,
     "y": 224,
     "width": 160,
     "height": 16
    },
    {
     "id": 45,
     "name": "",
     "type": "",
     "visible": true,
     "rotation": 0,
     "x": 1264,
     "y": 224,
     "width": 16,
     "height": 16
    },
    {
     "id": 46,
     "name": "",
     "type": "",
     "visible": true,
     "rotation": 0,
     "x": 0,
     "y": 240,
     "width": 16,
     "height": 16
    },
    {
     "id": 47,
     "name": "",
     "type": "",
     "visible": true,
     "rotation": 0,
     "x": 1264,
     "y": 240,
     "width": 16,
     "height": 16
    },
    {
     "id": 48,
     "name": "",
     "type": "",
     "visible": true,
     "rotation": 0,
     "x": 0,
     "y": 256,
     "width": 16,
     "height": 16
    },
    {
     "id": 49,
     "name": "",
     "type": "",
     "visible": true,
     "rotation": 0,
     "x": 1264,
     "y": 256,
     "width": 16,
     "height": 16
    },
    {
     "id": 50,
     "name": "",
     "type": "",
     "visible": true,
     "rotation": 0,
     "x": 0,
     "y": 272,
     "width": 16,
     "height": 16
    },
    {
     "id": 51,
     "name": "",
     "type": "",
     "visible": true,
     "rotation": 0,
     "x": 1264,
     "y": 272,
     "width": 16,
     "height": 16
    },
    {
     "id": 52,
     "name": "",
     "type": "",
     "visible": true,
     "rotation": 0,
     "x": 0,
     "y": 288,
     "width": 16,
     "height": 16
    },
    {
     "id": 53,
     "name": "",
     "type": "",
     "visible": true,
     "rotation": 0,
     "x": 1264,
     "y": 288,
     "width": 16,
     "height": 16
    },
    {
     "id": 54,
     "name": "",
     "type": "",
     "visible": true,
     "rotation": 0,
     "x": 0,
     "y": 304,
     "width": 16,
     "height": 16
    },
    {
     "id": 55,
     "name": "",
     "type": "",
     "visible": true,
     "rotation": 0,
     "x": 1264,
     "y": 304,
     "width": 16,
     "height": 16
    },
    {
     "id": 56,
     "name": "",
     "type": "",
     "visible": true,
     "rotation": 0,
     "x": 0,
     "y": 320,
     "width": 16,
     "height": 16
    },
    {
     "id": 57,
     "name": "",
     "type": "",
     "visible": true,
     "rotation": 0,
     "x": 1264,
     "y": 320,
     "width": 16,
     "height": 16
    },
    {
     "id": 58,
     "name": "",
     "type": "",
     "visible": true,
     "rotation": 0,
     "x": 0,
     "y": 336,
     "width": 16,
     "height": 16
    },
    {
     "id": 59,
     "name": "",
     "type": "",
     "visible": true,
     "rotation": 0,
     "x": 1264,
     "y": 336,
     "width": 16,
     "height": 16
    },
    {
     "id": 60,
     "name": "",
     "type": "",
     "visible": true,
     "rotation": 0,
     "x": 0,
     "y": 352,
     "width": 16,
     "height": 16
    },
    {
     "id": 61,
     "name": "",
     "type": "",
     "visible": true,
     "rotation": 0,
     "x": 1264,
     "y": 352,
     "width": 16,
     "height": 16
    },
    {
     "id": 62,
     "name": "",
     "type": "",
     "visible": true,
     "rotation": 0,
     "x": 0,
     "y": 368,
     "width": 16,
     "height": 16
    },
    {
     "id": 63,
     "name": "",
     "type": "",
     "visible": true,
     "rotation": 0,
     "x": 1264,
     "y": 368,
     "width": 16,
     "height": 16
    },
    {
     "id": 64,
     "name": "",
     "type": "",
     "visible": true,
     "rotation": 0,
     "x": 0,
     "y": 384,
     "width": 16,
     "height": 16
    },
    {
     "id": 65,
     "name": "",
     "type": "",
     "visible": true,
     "rotation": 0,
     "x": 1264,
     "y": 384,
     "width": 16,
     "height": 16
    },
    {
     "id": 66,
     "name": "",
     "type": "",
     "visible": true,
     "rotation": 0,
     "x": 0,
     "y": 400,
     "width": 16,
     "height": 16
    },
    {
     "id": 67,
     "name": "",
     "type": "",
     "visible": true,
     "rotation": 0,
     "x": 1264,
     "y": 400,
     "width": 16,
     "height": 16
    },
    {
     "id": 68,
     "name": "",
     "type": "",
     "visible": true,
     "rotation": 0,
     "x": 0,
     "y": 416,
     "width": 16,
     "height": 16
    },
    {
     "id": 69,
     "name": "",
     "type": "",
     "visible": true,
     "rotation": 0,
     "x": 1264,
     "y": 416,
     "width": 16,
     "height": 16
    },
    {
     "id": 70,
     "name": "",
     "type": "",
     "visible": true,
     "rotation": 0,
     "x": 0,
     "y": 432,
     "width": 16,
     "height": 16
    },
    {
     "id": 71,
     "name": "",
     "type": "",
     "visible": true,
     "rotation": 0,
     "x": 1264,
     "y": 432,
     "width": 16,
     "height": 16
    },
    {
     "id": 72,
     "name": "",
     "type": "",
     "visible": true,
     "rotation": 0,
     "x": 0,
     "y": 448,
     "width": 16,
     "height": 16
    },
    {
     "id": 73,
     "name": "",
     "type": "",
     "visible": true,
     "rotation": 0,
     "x": 1264,
     "y": 448,
     "width": 16,
     "height": 16
    },
    {
     "id": 74,
     "name": "",
     "type": "",
     "visible": true,
     "rotation": 0,
     "x": 0,
     "y": 464,
     "width": 16,
     "height": 16
    },
    {
     "id": 75,
     "name": "",
     "type": "",
     "visible": true,
     "rotation": 0,
     "x": 1264,
     "y": 464,
     "width": 16,
     "height": 16
    },
    {
     "id": 76,
     "name": "",
     "type": "",
     "visible": true,
     "rotation": 0,
     "x": 0,
     "y": 480,
     "width": 16,
     "height": 16
    },
    {
     "id": 77,
     "name": "",
     "type": "",
     "visible": true,
     "rotation": 0,
     "x": 1264,
     "y": 480,
     "width": 16,
     "height": 16
    },
    {
     "id": 78,
     "name": "",
     "type": "",
     "visible": true,
     "rotation": 0,
     "x": 0,
     "y": 496,
     "width": 16,
     "height": 16
    },
    {
     "id": 79,
     "name": "",
     "type": "",
     "visible": true,
     "rotation": 0,
     "x": 1264,
     "y": 496,
     "width": 16,
     "height": 16
    },
    {
     "id": 80,
     "name": "",
     "type": "",
     "visible": true,
     "rotation": 0,
     "x": 0,
     "y": 512,
     "width": 16,
     "height": 16
    },
    {
     "id": 81,
     "name": "",
     "type": "",
     "visible": true,
     "rotation": 0,
     "x": 1264,
     "y": 512,
     "width": 16,
     "height": 16
    },
    {
     "id": 82,
     "name": "",
     "type": "",
     "visible": true,
     "rotation": 0,
     "x": 0,
     "y": 528,
     "width": 16,
     "height": 16
    },
    {
     "id": 83,
     "name": "",
     "type": "",
     "visible": true,
     "rotation": 0,
     "x": 1264,
     "y": 528,
     "width": 16,
     "height": 16
    },
    {
     "id": 84,
     "name": "",
     "type": "",
     "visible": true,
     "rotation": 0,
     "x": 0,
     "y": 544,
     "width": 16,
     "height": 16
    },
    {
     "id": 85,
     "name": "",
     "type": "",
     "visible": true,
     "rotation": 0,
     "x": 1264,
     "y": 544,
     "width": 16,
     "height": 16
    },
    {
     "id": 86,
     "name": "",
     "type": "",
     "visible": true,
     "rotation": 0,
     "x": 0,
     "y": 560,
     "width": 16,
     "height": 16
    },
    {
     "id": 87,
     "name": "",
     "type": "",
     "visible": true,
     "rotation": 0,
     "x": 1264,
     "y": 560,
     "width": 16,
     "height": 16
    },
    {
     "id": 88,
     "name": "",
     "type": "",
     "visible": true,
     "rotation": 0,
     "x": 0,
     "y": 576,
     "width": 16,
     "height": 16
    },
    {
     "id": 89,
     "name": "",
     "type": "",
     "visible": true,
     "rotation": 0,
     "x": 1264,
     "y": 576,
     "width": 16,
     "height": 16
    },
    {
     "id": 90,
     "name": "",
     "type": "",
     "visible": true,
     "rotation": 0,
     "x": 0,
     "y": 592,
     "width": 16,
     "height": 16
    },
    {
     "id": 91,
     "name": "",
     "type": "",
     "visible": true,
     "rotation": 0,
     "x": 1264,
     "y": 592,
     "width": 16,
     "height": 16
    },
    {
     "id": 92,
     "name": "",
     "type": "",
     "visible": true,
     "rotation": 0,
     "x": 0,
     "y": 608,
     "width": 16,
     "height": 16
    },
    {
     "id": 93,
     "name": "",
     "type": "",
     "visible": true,
     "rotation": 0,
     "x": 1264,
     "y": 608,
     "width": 16,
     "height": 16
    },
    {
     "id": 94,
     "name": "",
     "type": "",
     "visible": true,
     "rotation": 0,
     "x": 0,
     "y": 624,
     "width": 16,
     "height": 16
    },
    {
     "id": 95,
     "name": "",
     "type": "",
     "visible": true,
     "rotation": 0,
     "x": 1264,
     "y": 624,
     "width": 16,
     "height": 16
    },
    {
     "id": 96,
     "name": "",
     "type": "",
     "visible": true,
     "rotation": 0,
     "x": 0,
     "y": 640,
     "width": 16,
     "height": 16
    },
    {
     "id": 97,
     "name": "",
     "type": "",
     "visible": true,
     "rotation": 0,
     "x": 1264,
     "y": 640,
     "width": 16,
     "height": 16
    },
    {
     "id": 98,
     "name": "",
     "type": "",
     "visible": true,
     "rotation": 0,
     "x": 0,
     "y": 656,
     "width": 16,
     "height": 16
    },
    {
     "id": 99,
     "name": "",
     "type": "",
     "visible": true,
     "rotation": 0,
     "x": 1264,
     "y": 656,
     "width": 16,
     "height": 16
    },
    {
     "id": 100,
     "name": "",
     "type": "",
     "visible": true,
     "rotation": 0,
     "x": 0,
     "y": 672,
     "width": 16,
     "height": 16
    },
    {
     "id": 101,
     "name": "",
     "type": "",
     "visible": true,
     "rotation": 0,
     "x": 1264,
     "y": 672,
     "width": 16,
     "height": 16
    },
    {
     "id": 102,
     "name": "",
     "type": "",
     "visible": true,
     "rotation": 0,
     "x": 0,
     "y": 688,
     "width": 16,
     "height": 16
    },
    {
     "id": 103,
     "name": "",
     "type": "",
     "visible": true,
     "rotation": 0,
     "x": 1264,
     "y": 688,
     "width": 16,
     "height": 16
    },
    {
     "id": 104,
     "name": "",
     "type": "",
     "visible": true,
     "rotation": 0,
     "x": 0,
     "y": 704,
     "width": 16,
     "height": 16
    },
    {
     "id": 105,
     "name": "",
     "type": "",
     "visible": true,
     "rotation": 0,
     "x": 1264,
     "y": 704,
     "width": 16,
     "height": 16
    },
    {
     "id": 106,
     "name": "",
     "type": "",
     "visible": true,
     "rotation": 0,
     "x": 0,
     "y": 720,
     "width": 16,
     "height": 16
    },
    {
     "id": 107,
     "name": "",
     "type": "",
     "visible": true,
     "rotation": 0,
     "x": 1264,
     "y": 720,
     "width": 16,
     "height": 16
    },
    {
     "id": 108,
     "name": "",
     "type": "",
     "visible": true,
     "rotation": 0,
     "x": 0,
     "y": 736,
     "width": 16,
     "height": 16
    },
    {
     "id": 109,
     "name": "",
     "type": "",
     "visible": true,
     "rotation": 0,
     "x": 1264,
     "y": 736,
     "width": 16,
     "height": 16
    },
    {
     "id": 110,
     "name": "",
     "type": "",
     "visible": true,
     "rotation": 0,
     "x": 0,
     "y": 752,
     "width": 16,
     "height": 16
    },
    {
     "id": 111,
     "name": "",
     "type": "",
     "visible": true,
     "rotation": 0,
     "x": 1264,
     "y": 752,
     "width": 16,
     "height": 16
    },
    {
     "id": 112,
     "name": "",
     "type": "",
     "visible": true,
     "rotation": 0,
     "x": 0,
     "y": 768,
     "width": 1280,
     "height": 16
    },
    {
     "id": 113,
     "name": "",
     "type": "",
     "visible": true,
     "rotation": 0,
     "x": 0,
     "y": 784,
     "width": 1280,
     "height": 16
    },
    {
     "id": 114,
     "name": "",
     "type": "",
     "visible": true,
     "rotation": 0,
     "x": 240,
     "y": 480,
     "width": 16,
     "height": 16
    },
    {
     "id": 115,
     "name": "",
     "type": "",
     "visible": true,
     "rotation": 0,
     "x": 256,
     "y": 480,
     "width": 16,
     "height": 16
    },
    {
     "id": 116,
     "name": "",
     "type": "",
     "visible": true,
     "rotation": 0,
     "x": 272,
     "y": 480,
     "width": 16,
     "height": 16
    },
    {
     "id": 117,
     "name": "",
     "type": "",
     "visible": true,
     "rotation": 0,
     "x": 288,
     "y": 480,
     "width": 16,
     "height": 16
    },
    {
     "id": 118,
     "name": "",
     "type": "",
     "visible": true,
     "rotation": 0,
     "x": 304,
     "y": 480,
     "width": 16,
     "height": 16
    },
    {
     "id": 119,
     "name": "",
     "type": "",
     "visible": true,
     "rotation": 0,
     "x": 320,
     "y": 480,
     "width": 16,
     "height": 16
    },
    {
     "id": 120,
     "name": "",
     "type": "",
     "visible": true,
     "rotation": 0,
     "x": 240,
     "y": 496,
     "width": 16,
     "height": 16
    },
    {
     "id": 121,
     "name": "",
     "type": "",
     "visible": true,
     "rotation": 0,
     "x": 256,
     "y": 496,
     "width": 16,
     "height": 16
    },
    {
     "id": 122,
     "name": "",
     "type": "",
     "visible": true,
     "rotation": 0,
     "x": 272,
     "y": 496,
     "width": 16,
     "height": 16
    },
    {
     "id": 123,
     "name": "",
     "type": "",
     "visible": true,
     "rotation": 0,
     "x": 288,
     "y": 496,
     "width": 16,
     "height": 16
    },
    {
     "id": 124,
     "name": "",
     "type": "",
     "visible": true,
     "rotation": 0,
     "x": 304,
     "y": 496,
     "width": 16,
     "height": 16
    },
    {
     "id": 125,
     "name": "",
     "type": "",
     "visible": true,
     "rotation": 0,
     "x": 320,
     "y": 496,
     "width": 16,
     "height": 16
    },
    {
     "id": 126,
     "name": "",
     "type": "",
     "visible": true,
     "rotation": 0,
     "x": 240,
     "y": 512,
     "width": 16,
     "height": 16
    },
    {
     "id": 127,
     "name": "",
     "type": "",
     "visible": true,
     "rotation": 0,
     "x": 256,
     "y": 512,
     "width": 16,
     "height": 16
    },
    {
     "id": 128,
     "name": "",
     "type": "",
     "visible": true,
     "rotation": 0,
     "x": 272,
     "y": 512,
     "width": 16,
     "height": 16
    },
    {
     "id": 129,
     "name": "",
     "type": "",
     "visible": true,
     "rotation": 0,
     "x": 288,
     "y": 512,
     "width": 16,
     "height": 16
    },
    {
     "id": 130,
     "name": "",
     "type": "",
     "visible": true,
     "rotation": 0,
     "x": 304,
     "y": 512,
     "width": 16,
     "height": 16
    },
    {
     "id": 131,
     "name": "",
     "type": "",
     "visible": true,
     "rotation": 0,
     "x": 320,
     "y": 512,
     "width": 16,
     "height": 16
    },
    {
     "id": 132,
     "name": "",
     "type": "",
     "visible": true,
     "rotation": 0,
     "x": 240,
     "y": 528,
     "width": 16,
     "height": 16
    },
    {
     "id": 133,
     "name": "",
     "type": "",
     "visible": true,
     "rotation": 0,
     "x": 256,
     "y": 528,
     "width": 16,
     "height": 16
    },
    {
     "id": 134,
     "name": "",
     "type": "",
     "visible": true,
     "rotation": 0,
     "x": 272,
     "y": 528,
     "width": 16,
     "height": 16
    },
    {
     "id": 135,
     "name": "",
     "type": "",
     "visible": true,
     "rotation": 0,
     "x": 288,
     "y": 528,
     "width": 16,
     "height": 16
    },
    {
     "id": 136,
     "name": "",
     "type": "",
     "visible": true,
     "rotation": 0,
     "x": 304,
     "y": 528,
     "width": 16,
     "height": 16
    },
    {
     "id": 137,
     "name": "",
     "type": "",
     "visible": true,
     "rotation": 0,
     "x": 320,
     "y": 528,
     "width": 16,
     "height": 16
    },
    {
     "id": 138,
     "name": "",
     "type": "",
     "visible": true,
     "rotation": 0,
     "x": 240,
     "y": 544,
     "width": 16,
     "height": 16
    },
    {
     "id": 139,
     "name": "",
     "type": "",
     "visible": true,
     "rotation": 0,
     "x": 256,
     "y": 544,
     "width": 16,
     "height": 16
    },
    {
     "id": 140,
     "name": "",
     "type": "",
     "visible": true,
     "rotation": 0,
     "x": 272,
     "y": 544,
     "width": 16,
     "height": 16
    },
    {
     "id": 141,
     "name": "",
     "type": "",
     "visible": true,
     "rotation": 0,
     "x": 288,
     "y": 544,
     "width": 16,
     "height": 16
    },
    {
     "id": 142,
     "name": "",
     "type": "",
     "visible": true,
     "rotation": 0,
     "x": 304,
     "y": 544,
     "width": 16,
     "height": 16
    },
    {
     "id": 143,
     "name": "",
     "type": "",
     "visible": true,
     "rotation": 0,
     "x": 320,
     "y": 544,
     "width": 16,
     "height": 16
    },
    {
     "id": 144,
     "name": "",
     "type": "",
     "visible": true,
     "rotation": 0,
     "x": 240,
     "y": 560,
     "width": 16,
     "height": 16
    },
    {
     "id": 145,
     "name": "",
     "type": "",
     "visible": true,
     "rotation": 0,
     "x": 256,
     "y": 560,
     "width": 16,
     "height": 16
    },
    {
     "id": 146,
     "name": "",
     "type": "",
     "visible": true,
     "rotation": 0,
     "x": 272,
     "y": 560,
     "width": 16,
     "height": 16
    },
    {
     "id": 147,
     "name": "",
     "type": "",
     "visible": true,
     "rotation": 0,
     "x": 288,
     "y": 560,
     "width": 16,
     "height": 16
    },
    {
     "id": 148,
     "name": "",
     "type": "",
     "visible": true,
     "rotation": 0,
     "x": 304,
     "y": 560,
     "width": 16,
     "height": 16
    },
    {
     "id": 149,
     "name": "",
     "type": "",
     "visible": true,
     "rotation": 0,
     "x": 320,
     "y": 560,
     "width": 16,
     "height": 16
    },
    {
     "id": 150,
     "name": "",
     "type": "",
     "visible": true,
     "rotation": 0,
     "x": 240,
     "y": 576,
     "width": 16,
     "height": 16
    },
    {
     "id": 151,
     "name": "",
     "type": "",
     "visible": true,
     "rotation": 0,
     "x": 256,
     "y": 576,
     "width": 16,
     "height": 16
    },
    {
     "id": 152,
     "name": "",
     "type": "",
     "visible": true,
     "rotation": 0,
     "x": 272,
     "y": 576,
     "width": 16,
     "height": 16
    },
    {
     "id": 153,
     "name": "",
     "type": "",
     "visible": true,
     "rotation": 0,
     "x": 288,
     "y": 576,
     "width": 16,
     "height": 16
    },
    {
     "id": 154,
     "name": "",
     "type": "",
     "visible": true,
     "rotation": 0,
     "x": 304,
     "y": 576,
     "width": 16,
     "height": 16
    },
    {
     "id": 155,
     "name": "",
     "type": "",
     "visible": true,
     "rotation": 0,
     "x": 320,
     "y": 576,
     "width": 16,
     "height": 16
    },
    {
     "id": 156,
     "name": "",
     "type": "",
     "visible": true,
     "rotation": 0,
     "x": 960,
     "y": 464,
     "width": 16,
     "height": 16
    },
    {
     "id": 157,
     "name": "",
     "type": "",
     "visible": true,
     "rotation": 0,
     "x": 976,
     "y": 464,
     "width": 16,
     "height": 16
    },
    {
     "id": 158,
     "name": "",
     "type": "",
     "visible": true,
     "rotation": 0,
     "x": 992,
     "y": 464,
     "width": 16,
     "height": 16
    },
    {
     "id": 159,
     "name": "",
     "type": "",
     "visible": true,
     "rotation": 0,
     "x": 1008,
     "y": 464,
     "width": 16,
     "height": 16
    },
    {
     "id": 160,
     "name": "",
     "type": "",
     "visible": true,
     "rotation": 0,
     "x": 960,
     "y": 480,
     "width": 16,
     "height": 16
    },
    {
     "id": 161,
     "name": "",
     "type": "",
     "visible": true,
     "rotation": 0,
     "x": 976,
     "y": 480,
     "width": 16,
     "height": 16
    },
    {
     "id": 162,
     "name": "",
     "type": "",
     "visible": true,
     "rotation": 0,
     "x": 992,
     "y": 480,
     "width": 16,
     "height": 16
    },
    {
     "id": 163,
     "name": "",
     "type": "",
     "visible": true,
     "rotation": 0,
     "x": 1008,
     "y": 480,
     "width": 16,
     "height": 16
    },
    {
     "id": 164,
     "name": "",
     "type": "",
     "visible": true,
     "rotation": 0,
     "x": 960,
     "y": 496,
     "width": 16,
     "height": 16
    },
    {
     "id": 165,
     "name": "",
     "type": "",
     "visible": true,
     "rotation": 0,
     "x": 976,
     "y": 496,
     "width": 16,
     "height": 16
    },
    {
     "id": 166,
     "name": "",
     "type": "",
     "visible": true,
     "rotation": 0,
     "x": 992,
     "y": 496,
     "width": 16,
     "height": 16
    },
    {
     "id": 167,
     "name": "",
     "type": "",
     "visible": true,
     "rotation": 0,
     "x": 1008,
     "y": 496,
     "width": 16,
     "height": 16
    },
    {
     "id": 168,
     "name": "",
     "type": "",
     "visible": true,
     "rotation": 0,
     "x": 960,
     "y": 512,
     "width": 16,
     "height": 16
    },
    {
     "id": 169,
     "name": "",
     "type": "",
     "visible": true,
     "rotation": 0,
     "x": 976,
     "y": 512,
     "width": 16,
     "height": 16
    },
    {
     "id": 170,
     "name": "",
     "type": "",
     "visible": true,
     "rotation": 0,
     "x": 992,
     "y": 512,
     "width": 16,
     "height": 16
    },
    {
     "id": 171,
     "name": "",
     "type": "",
     "visible": true,
     "rotation": 0,
     "x": 1008,
     "y": 512,
     "width": 16,
     "height": 16
    },
    {
     "id": 172,
     "name": "",
     "type": "",
     "visible": true,
     "rotation": 0,
     "x": 752,
     "y": 560,
     "width": 16,
     "height": 16
    },
    {
     "id": 173,
     "name": "",
     "type": "",
     "visible": true,
     "rotation": 0,
     "x": 768,
     "y": 560,
     "width": 16,
     "height": 16
    },
    {
     "id": 174,
     "name": "",
     "type": "",
     "visible": true,
     "rotation": 0,
     "x": 784,
     "y": 560,
     "width": 16,
     "height": 16
    },
    {
     "id": 175,
     "name": "",
     "type": "",
     "visible": true,
     "rotation": 0,
     "x": 800,
     "y": 560,
     "width": 16,
     "height": 16
    },
    {
     "id": 176,
     "name": "",
     "type": "",
     "visible": true,
     "rotation": 0,
     "x": 784,
     "y": 576,
     "width": 16,
     "height": 16
    },
    {
     "id": 177,
     "name": "",
     "type": "",
     "visible": true,
     "rotation": 0,
     "x": 800,
     "y": 576,
     "width": 16,
     "height": 16
    },
    {
     "id": 178,
     "name": "",
     "type": "",
     "visible": true,
     "rotation": 0,
     "x": 816,
     "y": 576,
     "width": 16,
     "height": 16
    },
    {
     "id": 179,
     "name": "",
     "type": "",
     "visible": true,
     "rotation": 0,
     "x": 752,
     "y": 592,
     "width": 16,
     "height": 16
    },
    {
     "id": 180,
     "name": "",
     "type": "",
     "visible": true,
     "rotation": 0,
     "x": 768,
     "y": 592,
     "width": 16,
     "height": 16
    },
    {
     "id": 181,
     "name": "",
     "type": "",
     "visible": true,
     "rotation": 0,
     "x": 784,
     "y": 592,
     "width": 16,
     "height": 16
    },
    {
     "id": 182,
     "name": "",
     "type": "",
     "visible": true,
     "rotation": 0,
     "x": 800,
     "y": 592,
     "width": 16,
     "height": 16
    },
    {
     "id": 183,
     "name": "",
     "type": "",
     "visible": true,
     "rotation": 0,
     "x": 816,
     "y": 592,
     "width": 16,
     "height": 16
    },
    {
     "id": 184,
     "name": "",
     "type": "",
     "visible": true,
     "rotation": 0,
     "x": 832,
     "y": 592,
     "width": 16,
     "height": 16
    },
    {
     "id": 185,
     "name": "",
     "type": "",
     "visible": true,
     "rotation": 0,
     "x": 752,
     "y": 608,
     "width": 16,
     "height": 16
    },
    {
     "id": 186,
     "name": "",
     "type": "",
     "visible": true,
     "rotation": 0,
     "x": 768,
     "y": 608,
     "width": 16,
     "height": 16
    },
    {
     "id": 187,
     "name": "",
     "type": "",
     "visible": true,
     "rotation": 0,
     "x": 784,
     "y": 608,
     "width": 16,
     "height": 16
    },
    {
     "id": 188,
     "name": "",
     "type": "",
     "visible": true,
     "rotation": 0,
     "x": 800,
     "y": 608,
     "width": 16,
     "height": 16
    },
    {
     "id": 189,
     "name": "",
     "type": "",
     "visible": true,
     "rotation": 0,
     "x": 816,
     "y": 608,
     "width": 16,
     "height": 16
    },
    {
     "id": 190,
     "name": "",
     "type": "",
     "visible": true,
     "rotation": 0,
     "x": 832,
     "y": 608,
     "width": 16,
     "height": 16
    },
    {
     "id": 191,
     "name": "",
     "type": "",
     "visible": true,
     "rotation": 0,
     "x": 768,
     "y": 624,
     "width": 16,
     "height": 16
    },
    {
     "id": 192,
     "name": "",
     "type": "",
     "visible": true,
     "rotation": 0,
     "x": 784,
     "y": 624,
     "width": 16,
     "height": 16
    },
    {
     "id": 193,
     "name": "",
     "type": "",
     "visible": true,
     "rotation": 0,
     "x": 800,
     "y": 624,
     "width": 16,
     "height": 16
    },
    {
     "id": 194,
     "name": "",
     "type": "",
     "visible": true,
     "rotation": 0,
     "x": 816,
     "y": 624,
     "width": 16,
     "height": 16
    },
    {
     "id": 195,
     "name": "",
     "type": "",
     "visible": true,
     "rotation": 0,
     "x": 832,
     "y": 624,
     "width": 16,
     "height": 16
    },
    {
     "id": 196,
     "name": "",
     "type": "",
     "visible": true,
     "rotation": 0,
     "x": 768,
     "y": 640,
     "width": 16,
     "height": 16
    },
    {
     "id": 197,
     "name": "",
     "type": "",
     "visible": true,
     "rotation": 0,
     "x": 784,
     "y": 640,
     "width": 16,
     "height": 16
    },
    {
     "id": 198,
     "name": "",
     "type": "",
     "visible": true,
     "rotation": 0,
     "x": 800,
     "y": 640,
     "width": 16,
     "height": 16
    },
    {
     "id": 199,
     "name": "",
     "type": "",
     "visible": true,
     "rotation": 0,
     "x": 816,
     "y": 640,
     "width": 16,
     "height": 16
    },
    {
     "id": 200,
     "name": "",
     "type": "",
     "visible": true,
     "rotation": 0,
     "x": 832,
     "y": 640,
     "width": 16,
     "height": 16
    },
    {
     "id": 201,
     "name": "",
     "type": "",
     "visible": true,
     "rotation": 0,
     "x": 768,
     "y": 656,
     "width": 16,
     "height": 16
    },
    {
     "id": 202,
     "name": "",
     "type": "",
     "visible": true,
     "rotation": 0,
     "x": 784,
     "y": 656,
     "width": 16,
     "height": 16
    },
    {
     "id": 203,
     "name": "",
     "type": "",
     "visible": true,
     "rotation": 0,
     "x": 800,
     "y": 656,
     "width": 16,
     "height": 16
    },
    {
     "id": 204,
     "name": "",
     "type": "",
     "visible": true,
     "rotation": 0,
     "x": 816,
     "y": 656,
     "width": 16,
     "height": 16
    },
    {
     "id": 205,
     "name": "",
     "type": "",
     "visible": true,
     "rotation": 0,
     "x": 832,
     "y": 656,
     "width": 16,
     "height": 16
    },
    {
     "id": 206,
     "name": "",
     "type": "",
     "visible": true,
     "rotation": 0,
     "x": 752,
     "y": 672,
     "width": 16,
     "height": 16
    },
    {
     "id": 207,
     "name": "",
     "type": "",
     "visible": true,
     "rotation": 0,
     "x": 768,
     "y": 672,
     "width": 16,
     "height": 16
    },
    {
     "id": 208,
     "name": "",
     "type": "",
     "visible": true,
     "rotation": 0,
     "x": 784,
     "y": 672,
     "width": 16,
     "height": 16
    },
    {
     "id": 209,
     "name": "",
     "type": "",
     "visible": true,
     "rotation": 0,
     "x": 816,
     "y": 672,
     "width": 16,
     "height": 16
    },
    {
     "id": 210,
     "name": "",
     "type": "",
     "visible": true,
     "rotation": 0,
     "x": 832,
     "y": 672,
     "width": 16,
     "height": 16
    },
    {
     "id": 211,
     "name": "",
     "type": "",
     "visible": true,
     "rotation": 0,
     "x": 192,
     "y": 288,
     "width": 16,
     "height": 16
    },
    {
     "id": 212,
     "name": "",
     "type": "",
     "visible": true,
     "rotation": 0,
     "x": 208,
     "y": 288,
     "width": 16,
     "height": 16
    },
    {
     "id": 213,
     "name": "",
     "type": "",
     "visible": true,
     "rotation": 0,
     "x": 192,
     "y": 304,
     "width": 16,
     "height": 16
    },
    {
     "id": 214,
     "name": "",
     "type": "",
     "visible": true,
     "rotation": 0,
     "x": 208,
     "y": 304,
     "width": 16,
     "height": 16
    },
    {
     "id": 215,
     "name": "",
     "type": "",
     "visible": true,
     "rotation": 0,
     "x": 320,
     "y": 320,
     "width": 16,
     "height": 16
    },
    {
     "id": 216,
     "name": "",
     "type": "",
     "visible": true,
     "rotation": 0,
     "x": 336,
     "y": 320,
     "width": 16,
     "height": 16
    },
    {
     "id": 217,
     "name": "",
     "type": "",
     "visible": true,
     "rotation": 0,
     "x": 320,
     "y": 336,
     "width": 16,
     "height": 16
    },
    {
     "id": 218,
     "name": "",
     "type": "",
     "visible": true,
     "rotation": 0,
     "x": 336,
     "y": 336,
     "width": 16,
     "height": 16
    },
    {
     "id": 219,
     "name": "",
     "type": "",
     "visible": true,
     "rotation": 0,
     "x": 128,
     "y": 320,
     "width": 16,
     "height": 16
    },
    {
     "id": 220,
     "name": "",
     "type": "",
     "visible": true,
     "rotation": 0,
     "x": 144,
     "y": 320,
     "width": 16,
     "height": 16
    },
    {
     "id": 221,
     "name": "",
     "type": "",
     "visible": true,
     "rotation": 0,
     "x": 128,
     "y": 336,
     "width": 16,
     "height": 16
    },
    {
     "id": 222,
     "name": "",
     "type": "",
     "visible": true,
     "rotation": 0,
     "x": 144,
     "y": 336,
     "width": 16,
     "height": 16
    },
    {
     "id": 223,
     "name": "",
     "type": "",
     "visible": true,
     "rotation": 0,
     "x": 208,
     "y": 368,
     "width": 16,
     "height": 16
    },
    {
     "id": 224,
     "name": "",
     "type": "",
     "visible": true,
     "rotation": 0,
     "x": 224,
     "y": 368,
     "width": 16,
     "height": 16
    },
    {
     "id": 225,
     "name": "",
     "type": "",
     "visible": true,
     "rotation": 0,
     "x": 208,
     "y": 384,
     "width": 16,
     "height": 16
    },
    {
     "id": 226,
     "name": "",
     "type": "",
     "visible": true,
     "rotation": 0,
     "x": 224,
     "y": 384,
     "width": 16,
     "height": 16
    },
    {
     "id": 227,
     "name": "",
     "type": "",
     "visible": true,
     "rotation": 0,
     "x": 64,
     "y": 256,
     "width": 16,
     "height": 16
    },
    {
     "id": 228,
     "name": "",
     "type": "",
     "visible": true,
     "rotation": 0,
     "x": 80,
     "y": 256,
     "width": 16,
     "height": 16
    },
    {
     "id": 229,
     "name": "",
     "type": "",
     "visible": true,
     "rotation": 0,
     "x": 64,
     "y": 272,
     "width": 16,
     "height": 16
    },
    {
     "id": 230,
     "name": "",
     "type": "",
     "visible": true,
     "rotation": 0,
     "x": 80,
     "y": 272,
     "width": 16,
     "height": 16
    },
    {
     "id": 231,
     "name": "",
     "type": "",
     "visible": true,
     "rotation": 0,
     "x": 256,
     "y": 288,
     "width": 16,
     "height": 16
    },
    {
     "id": 232,
     "name": "",
     "type": "",
     "visible": true,
     "rotation": 0,
     "x": 272,
     "y": 288,
     "width": 16,
     "height": 16
    },
    {
     "id": 233,
     "name": "",
     "type": "",
     "visible": true,
     "rotation": 0,
     "x": 256,
     "y": 304,
     "width": 16,
     "height": 16
    },
    {
     "id": 234,
     "name": "",
     "type": "",
     "visible": true,
     "rotation": 0,
     "x": 272,
     "y": 304,
     "width": 16,
     "height": 16
    },
    {
     "id": 235,
     "name": "",
     "type": "",
     "visible": true,
     "rotation": 0,
     "x": 672,
     "y": 96,
     "width": 16,
     "height": 16
    },
    {
     "id": 236,
     "name": "",
     "type": "",
     "visible": true,
     "rotation": 0,
     "x": 688,
     "y": 96,
     "width": 16,
     "height": 16
    },
    {
     "id": 237,
     "name": "",
     "type": "",
     "visible": true,
     "rotation": 0,
     "x": 672,
     "y": 112,
     "width": 16,
     "height": 16
    },
    {
     "id": 238,
     "name": "",
     "type": "",
     "visible": true,
     "rotation": 0,
     "x": 688,
     "y": 112,
     "width": 16,
     "height": 16
    },
    {
     "id": 239,
     "name": "",
     "type": "",
     "visible": true,
     "rotation": 0,
     "x": 544,
     "y": 112,
     "width": 16,
     "height": 16
    },
    {
     "id": 240,
     "name": "",
     "type": "",
     "visible": true,
     "rotation": 0,
     "x": 560,
     "y": 112,
     "width": 16,
     "height": 16
    },
    {
     "id": 241,
     "name": "",
     "type": "",
     "visible": true,
     "rotation": 0,
     "x": 544,
     "y": 128,
     "width": 16,
     "height": 16
    },
    {
     "id": 242,
     "name": "",
     "type": "",
     "visible": true,
     "rotation": 0,
     "x": 560,
     "y": 128,
     "width": 16,
     "height": 16
    },
    {
     "id": 243,
     "name": "",
     "type": "",
     "visible": true,
     "rotation": 0,
     "x": 640,
     "y": 192,
     "width": 16,
     "height": 16
    },
    {
     "id": 244,
     "name": "",
     "type": "",
     "visible": true,
     "rotation": 0,
     "x": 656,
     "y": 192,
     "width": 16,
     "height": 16
    },
    {
     "id": 245,
     "name": "",
     "type": "",
     "visible": true,
     "rotation": 0,
     "x": 640,
     "y": 208,
     "width": 16,
     "height": 16
    },
    {
     "id": 246,
     "name": "",
     "type": "",
     "visible": true,
     "rotation": 0,
     "x": 656,
     "y": 208,
     "width": 16,
     "height": 16
    },
    {
     "id": 247,
     "name": "",
     "type": "",
     "visible": true,
     "rotation": 0,
     "x": 736,
     "y": 96,
     "width": 16,
     "height": 16
    },
    {
     "id": 248,
     "name": "",
     "type": "",
     "visible": true,
     "rotation": 0,
     "x": 752,
     "y": 96,
     "width": 16,
     "height": 16
    },
    {
     "id": 249,
     "name": "",
     "type": "",
     "visible": true,
     "rotation": 0,
     "x": 736,
     "y": 112,
     "width": 16,
     "height": 16
    },
    {
     "id": 250,
     "name": "",
     "type": "",
     "visible": true,
     "rotation": 0,
     "x": 752,
     "y": 112,
     "width": 16,
     "height": 16
    },
    {
     "id": 251,
     "name": "",
     "type": "",
     "visible": true,
     "rotation": 0,
     "x": 608,
     "y": 112,
     "width": 16,
     "height": 16
    },
    {
     "id": 252,
     "name": "",
     "type": "",
     "visible": true,
     "rotation": 0,
     "x": 624,
     "y": 112,
     "width": 16,
     "height": 16
    },
    {
     "id": 253,
     "name": "",
     "type": "",
     "visible": true,
     "rotation": 0,
     "x": 608,
     "y": 128,
     "width": 16,
     "height": 16
    },
    {
     "id": 254,
     "name": "",
     "type": "",
     "visible": true,
     "rotation": 0,
     "x": 624,
     "y": 128,
     "width": 16,
     "height": 16
    },
    {
     "id": 255,
     "name": "",
     "type": "",
     "visible": true,
     "rotation": 0,
     "x": 576,
     "y": 224,
     "width": 16,
     "height": 16
    },
    {
     "id": 256,
     "name": "",
     "type": "",
     "visible": true,
     "rotation": 0,
     "x": 592,
     "y": 224,
     "width": 16,
     "height": 16
    },
    {
     "id": 257,
     "name": "",
     "type": "",
     "visible": true,
     "rotation": 0,
     "x": 576,
     "y": 240,
     "width": 16,
     "height": 16
    },
    {
     "id": 258,
     "name": "",
     "type": "",
     "visible": true,
     "rotation": 0,
     "x": 592,
     "y": 240,
     "width": 16,
     "height": 16
    },
    {
     "id": 259,
     "name": "",
     "type": "",
     "visible": true,
     "rotation": 0,
     "x": 480,
     "y": 128,
     "width": 16,
     "height": 16
    },
    {
     "id": 260,
     "name": "",
     "type": "",
     "visible": true,
     "rotation": 0,
     "x": 496,
     "y": 128,
     "width": 16,
     "height": 16
    },
    {
     "id": 261,
     "name": "",
     "type": "",
     "visible": true,
     "rotation": 0,
     "x": 480,
     "y": 144,
     "width": 16,
     "height": 16
    },
    {
     "id": 262,
     "name": "",
     "type": "",
     "visible": true,
     "rotation": 0,
     "x": 496,
     "y": 144,
     "width": 16,
     "height": 16
    },
    {
     "id": 263,
     "name": "",
     "type": "",
     "visible": true,
     "rotation": 0,
     "x": 512,
     "y": 208,
     "width": 16,
     "height": 16
    },
    {
     "id": 264,
     "name": "",
     "type": "",
     "visible": true,
     "rotation": 0,
     "x": 528,
     "y": 208,
     "width": 16,
     "height": 16
    },
    {
     "id": 265,
     "name": "",
     "type": "",
     "visible": true,
     "rotation": 0,
     "x": 512,
     "y": 224,
     "width": 16,
     "height": 16
    },
    {
     "id": 266,
     "name": "",
     "type": "",
     "visible": true,
     "rotation": 0,
     "x": 528,
     "y": 224,
     "width": 16,
     "height": 16
    },
    {
     "id": 267,
     "name": "",
     "type": "",
     "visible": true,
     "rotation": 0,
     "x": 848,
     "y": 144,
     "width": 16,
     "height": 16
    },
    {
     "id": 268,
     "name": "",
     "type": "",
     "visible": true,
     "rotation": 0,
     "x": 864,
     "y": 144,
     "width": 16,
     "height": 16
    },
    {
     "id": 269,
     "name": "",
     "type": "",
     "visible": true,
     "rotation": 0,
     "x": 848,
     "y": 160,
     "width": 16,
     "height": 16
    },
    {
     "id": 270,
     "name": "",
     "type": "",
     "visible": true,
     "rotation": 0,
     "x": 864,
     "y": 160,
     "width": 16,
     "height": 16
    },
    {
     "id": 271,
     "name": "",
     "type": "",
     "visible": true,
     "rotation": 0,
     "x": 1184,
     "y": 368,
     "width": 16,
     "height": 16
    },
    {
     "id": 272,
     "name": "",
     "type": "",
     "visible": true,
     "rotation": 0,
     "x": 1200,
     "y": 368,
     "width": 16,
     "height": 16
    },
    {
     "id": 273,
     "name": "",
     "type": "",
     "visible": true,
     "rotation": 0,
     "x": 1184,
     "y": 384,
     "width": 16,
     "height": 16
    },
    {
     "id": 274,
     "name": "",
     "type": "",
     "visible": true,
     "rotation": 0,
     "x": 1200,
     "y": 384,
     "width": 16,
     "height": 16
    },
    {
     "id": 275,
     "name": "",
     "type": "",
     "visible": true,
     "rotation": 0,
     "x": 1024,
     "y": 272,
     "width": 16,
     "height": 16
    },
    {
     "id": 276,
     "name": "",
     "type": "",
     "visible": true,
     "rotation": 0,
     "x": 1040,
     "y": 272,
     "width": 16,
     "height": 16
    },
    {
     "id": 277,
     "name": "",
     "type": "",
     "visible": true,
     "rotation": 0,
     "x": 1024,
     "y": 288,
     "width": 16,
     "height": 16
    },
    {
     "id": 278,
     "name": "",
     "type": "",
     "visible": true,
     "rotation": 0,
     "x": 1040,
     "y": 288,
     "width": 16,
     "height": 16
    },
    {
     "id": 279,
     "name": "",
     "type": "",
     "visible": true,
     "rotation": 0,
     "x": 1072,
     "y": 368,
     "width": 16,
     "height": 16
    },
    {
     "id": 280,
     "name": "",
     "type": "",
     "visible": true,
     "rotation": 0,
     "x": 1088,
     "y": 368,
     "width": 16,
     "height": 16
    },
    {
     "id": 281,
     "name": "",
     "type": "",
     "visible": true,
     "rotation": 0,
     "x": 1072,
     "y": 384,
     "width": 16,
     "height": 16
    },
    {
     "id": 282,
     "name": "",
     "type": "",
     "visible": true,
     "rotation": 0,
     "x": 1088,
     "y": 384,
     "width": 16,
     "height": 16
    },
    {
     "id": 283,
     "name": "",
     "type": "",
     "visible": true,
     "rotation": 0,
     "x": 1168,
     "y": 192,
     "width": 16,
     "height": 16
    },
    {
     "id": 284,
     "name": "",
     "type": "",
     "visible": true,
     "rotation": 0,
     "x": 1184,
     "y": 192,
     "width": 16,
     "height": 16
    },
    {
     "id": 285,
     "name": "",
     "type": "",
     "visible": true,
     "rotation": 0,
     "x": 1168,
     "y": 208,
     "width": 16,
     "height": 16
    },
    {
     "id": 286,
     "name": "",
     "type": "",
     "visible": true,
     "rotation": 0,
     "x": 1184,
     "y": 208,
     "width": 16,
     "height": 16
    },
    {
     "id": 287,
     "name": "",
     "type": "",
     "visible": true,
     "rotation": 0,
     "x": 960,
     "y": 352,
     "width": 16,
     "height": 16
    },
    {
     "id": 288,
     "name": "",
     "type": "",
     "visible": true,
     "rotation": 0,
     "x": 976,
     "y": 352,
     "width": 16,
     "height": 16
    },
    {
     "id": 289,
     "name": "",
     "type": "",
     "visible": true,
     "rotation": 0,
     "x": 960,
     "y": 368,
     "width": 16,
     "height": 16
    },
    {
     "id": 290,
     "name": "",
     "type": "",
     "visible": true,
     "rotation": 0,
     "x": 976,
     "y": 368,
     "width": 16,
     "height": 16
    },
    {
     "id": 291,
     "name": "",
     "type": "",
     "visible": true,
     "rotation": 0,
     "x": 1136,
     "y": 288,
     "width": 16,
     "height": 16
    },
    {
     "id": 292,
     "name": "",
     "type": "",
     "visible": true,
     "rotation": 0,
     "x": 1152,
     "y": 288,
     "width": 16,
     "height": 16
    },
    {
     "id": 293,
     "name": "",
     "type": "",
     "visible": true,
     "rotation": 0,
     "x": 1136,
     "y": 304,
     "width": 16,
     "height": 16
    },
    {
     "id": 294,
     "name": "",
     "type": "",
     "visible": true,
     "rotation": 0,
     "x": 1152,
     "y": 304,
     "width": 16,
     "height": 16
    },
    {
     "id": 295,
     "name": "",
     "type": "",
     "visible": true,
     "rotation": 0,
     "x": 1200,
     "y": 272,
     "width": 16,
     "height": 16
    },
    {
     "id": 296,
     "name": "",
     "type": "",
     "visible": true,
     "rotation": 0,
     "x": 1216,
     "y": 272,
     "width": 16,
     "height": 16
    },
    {
     "id": 297,
     "name": "",
     "type": "",
     "visible": true,
     "rotation": 0,
     "x": 1200,
     "y": 288,
     "width": 16,
     "height": 16
    },
    {
     "id": 298,
     "name": "",
     "type": "",
     "visible": true,
     "rotation": 0,
     "x": 1216,
     "y": 288,
     "width": 16,
     "height": 16
    },
    {
     "id": 299,
     "name": "",
     "type": "",
     "visible": true,
     "rotation": 0,
     "x": 1088,
     "y": 448,
     "width": 16,
     "height": 16
    },
    {
     "id": 300,
     "name": "",
     "type": "",
     "visible": true,
     "rotation": 0,
     "x": 1104,
     "y": 448,
     "width": 16,
     "height": 16
    },
    {
     "id": 301,
     "name": "",
     "type": "",
     "visible": true,
     "rotation": 0,
     "x": 1088,
     "y": 464,
     "width": 16,
     "height": 16
    },
    {
     "id": 302,
     "name": "",
     "type": "",
     "visible": true,
     "rotation": 0,
     "x": 1104,
     "y": 464,
     "width": 16,
     "height": 16
    },
    {
     "id": 303,
     "name": "",
     "type": "",
     "visible": true,
     "rotation": 0,
     "x": 160,
     "y": 608,
     "width": 16,
     "height": 16
    },
    {
     "id": 304,
     "name": "",
     "type": "",
     "visible": true,
     "rotation": 0,
     "x": 176,
     "y": 608,
     "width": 16,
     "height": 16
    },
    {
     "id": 305,
     "name": "",
     "type": "",
     "visible": true,
     "rotation": 0,
     "x": 160,
     "y": 624,
     "width": 16,
     "height": 16
    },
    {
     "id": 306,
     "name": "",
     "type": "",
     "visible": true,
     "rotation": 0,
     "x": 176,
     "y": 624,
     "width": 16,
     "height": 16
    },
    {
     "id": 307,
     "name": "",
     "type": "",
     "visible": true,
     "rotation": 0,
     "x": 112,
     "y": 688,
     "width": 16,
     "height": 16
    },
    {
     "id": 308,
     "name": "",
     "type": "",
     "visible": true,
     "rotation": 0,
     "x": 128,
     "y": 688,
     "width": 16,
     "height": 16
    },
    {
     "id": 309,
     "name": "",
     "type": "",
     "visible": true,
     "rotation": 0,
     "x": 112,
     "y": 704,
     "width": 16,
     "height": 16
    },
    {
     "id": 310,
     "name": "",
     "type": "",
     "visible": true,
     "rotation": 0,
     "x": 128,
     "y": 704,
     "width": 16,
     "height": 16
    },
    {
     "id": 311,
     "name": "",
     "type": "",
     "visible": true,
     "rotation": 0,
     "x": 256,
     "y": 720,
     "width": 16,
     "height": 16
    },
    {
     "id": 312,
     "name": "",
     "type": "",
     "visible": true,
     "rotation": 0,
     "x": 272,
     "y": 720,
     "width": 16,
     "height": 16
    },
    {
     "id": 313,
     "name": "",
     "type": "",
     "visible": true,
     "rotation": 0,
     "x": 256,
     "y": 736,
     "width": 16,
     "height": 16
    },
    {
     "id": 314,
     "name": "",
     "type": "",
     "visible": true,
     "rotation": 0,
     "x": 272,
     "y": 736,
     "width": 16,
     "height": 16
    },
    {
     "id": 315,
     "name": "",
     "type": "",
     "visible": true,
     "rotation": 0,
     "x": 320,
     "y": 656,
     "width": 16,
     "height": 16
    },
    {
     "id": 316,
     "name": "",
     "type": "",
     "visible": true,
     "rotation": 0,
     "x": 336,
     "y": 656,
     "width": 16,
     "height": 16
    },
    {
     "id": 317,
     "name": "",
     "type": "",
     "visible": true,
     "rotation": 0,
     "x": 320,
     "y": 672,
     "width": 16,
     "height": 16
    },
    {
     "id": 318,
     "name": "",
     "type": "",
     "visible": true,
     "rotation": 0,
     "x": 336,
     "y": 672,
     "width": 16,
     "height": 16
    },
    {
     "id": 319,
     "name": "",
     "type": "",
     "visible": true,
     "rotation": 0,
     "x": 176,
     "y": 688,
     "width": 16,
     "height": 16
    },
    {
     "id": 320,
     "name": "",
     "type": "",
     "visible": true,
     "rotation": 0,
     "x": 192,
     "y": 688,
     "width": 16,
     "height": 16
    },
    {
     "id": 321,
     "name": "",
     "type": "",
     "visible": true,
     "rotation": 0,
     "x": 176,
     "y": 704,
     "width": 16,
     "height": 16
    },
    {
     "id": 322,
     "name": "",
     "type": "",
     "visible": true,
     "rotation": 0,
     "x": 192,
     "y": 704,
     "width": 16,
     "height": 16
    },
    {
     "id": 323,
     "name": "",
     "type": "",
     "visible": true,
     "rotation": 0,
     "x": 240,
     "y": 640,
     "width": 16,
     "height": 16
    },
    {
     "id": 324,
     "name": "",
     "type": "",
     "visible": true,
     "rotation": 0,
     "x": 256,
     "y": 640,
     "width": 16,
     "height": 16
    },
    {
     "id": 325,
     "name": "",
     "type": "",
     "visible": true,
     "rotation": 0,
     "x": 240,
     "y": 656,
     "width": 16,
     "height": 16
    },
    {
     "id": 326,
     "name": "",
     "type": "",
     "visible": true,
     "rotation": 0,
     "x": 256,
     "y": 656,
     "width": 16,
     "height": 16
    },
    {
     "id": 327,
     "name": "",
     "type": "",
     "visible": true,
     "rotation": 0,
     "x": 80,
     "y": 608,
     "width": 16,
     "height": 16
    },
    {
     "id": 328,
     "name": "",
     "type": "",
     "visible": true,
     "rotation": 0,
     "x": 96,
     "y": 608,
     "width": 16,
     "height": 16
    },
    {
     "id": 329,
     "name": "",
     "type": "",
     "visible": true,
     "rotation": 0,
     "x": 80,
     "y": 624,
     "width": 16,
     "height": 16
    },
    {
     "id": 330,
     "name": "",
     "type": "",
     "visible": true,
     "rotation": 0,
     "x": 96,
     "y": 624,
     "width": 16,
     "height": 16
    },
    {
     "id": 331,
     "name": "",
     "type": "",
     "visible": true,
     "rotation": 0,
     "x": 1104,
     "y": 704,
     "width": 16,
     "height": 16
    },
    {
     "id": 332,
     "name": "",
     "type": "",
     "visible": true,
     "rotation": 0,
     "x": 1120,
     "y": 704,
     "width": 16,
     "height": 16
    },
    {
     "id": 333,
     "name": "",
     "type": "",
     "visible": true,
     "rotation": 0,
     "x": 1104,
     "y": 720,
     "width": 16,
     "height": 16
    },
    {
     "id": 334,
     "name": "",
     "type": "",
     "visible": true,
     "rotation": 0,
     "x": 1120,
     "y": 720,
     "width": 16,
     "height": 16
    },
    {
     "id": 335,
     "name": "",
     "type": "",
     "visible": true,
     "rotation": 0,
     "x": 1200,
     "y": 672,
     "width": 16,
     "height": 16
    },
    {
     "id": 336,
     "name": "",
     "type": "",
     "visible": true,
     "rotation": 0,
     "x": 1216,
     "y": 672,
     "width": 16,
     "height": 16
    },
    {
     "id": 337,
     "name": "",
     "type": "",
     "visible": true,
     "rotation": 0,
     "x": 1200,
     "y": 688,
     "width": 16,
     "height": 16
    },
    {
     "id": 338,
     "name": "",
     "type": "",
     "visible": true,
     "rotation": 0,
     "x": 1216,
     "y": 688,
     "width": 16,
     "height": 16
    },
    {
     "id": 339,
     "name": "",
     "type": "",
     "visible": true,
     "rotation": 0,
     "x": 1040,
     "y": 704,
     "width": 16,
     "height": 16
    },
    {
     "id": 340,
     "name": "",
     "type": "",
     "visible": true,
     "rotation": 0,
     "x": 1056,
     "y": 704,
     "width": 16,
     "height": 16
    },
    {
     "id": 341,
     "name": "",
     "type": "",
     "visible": true,
     "rotation": 0,
     "x": 1040,
     "y": 720,
     "width": 16,
     "height": 16
    },
    {
     "id": 342,
     "name": "",
     "type": "",
     "visible": true,
     "rotation": 0,
     "x": 1056,
     "y": 720,
     "width": 16,
     "height": 16
    },
    {
     "id": 343,
     "name": "",
     "type": "",
     "visible": true,
     "rotation": 0,
     "x": 1168,
     "y": 592,
     "width": 16,
     "height": 16
    },
    {
     "id": 344,
     "name": "",
     "type": "",
     "visible": true,
     "rotation": 0,
     "x": 1184,
     "y": 592,
     "width": 16,
     "height": 16
    },
    {
     "id": 345,
     "name": "",
     "type": "",
     "visible": true,
     "rotation": 0,
     "x": 1168,
     "y": 608,
     "width": 16,
     "height": 16
    },
    {
     "id": 346,
     "name": "",
     "type": "",
     "visible": true,
     "rotation": 0,
     "x": 1184,
     "y": 608,
     "width": 16,
     "height": 16
    },
    {
     "id": 347,
     "name": "",
     "type": "",
     "visible": true,
     "rotation": 0,
     "x": 608,
     "y": 720,
     "width": 16,
     "height": 16
    },
    {
     "id": 348,
     "name": "",
     "type": "",
     "visible": true,
     "rotation": 0,
     "x": 624,
     "y": 720,
     "width": 16,
     "height": 16
    },
    {
     "id": 349,
     "name": "",
     "type": "",
     "visible": true,
     "rotation": 0,
     "x": 608,
     "y": 736,
     "width": 16,
     "height": 16
    },
    {
     "id": 350,
     "name": "",
     "type": "",
     "visible": true,
     "rotation": 0,
     "x": 624,
     "y": 736,
     "width": 16,
     "height": 16
    },
    {
     "id": 351,
     "name": "",
     "type": "",
     "visible": true,
     "rotation": 0,
     "x": 528,
     "y": 720,
     "width": 16,
     "height": 16
    },
    {
     "id": 352,
     "name": "",
     "type": "",
     "visible": true,
     "rotation": 0,
     "x": 544,
     "y": 720,
     "width": 16,
     "height": 16
    },
    {
     "id": 353,
     "name": "",
     "type": "",
     "visible": true,
     "rotation": 0,
     "x": 528,
     "y": 736,
     "width": 16,
     "height": 16
    },
    {
     "id": 354,
     "name": "",
     "type": "",
     "visible": true,
     "rotation": 0,
     "x": 544,
     "y": 736,
     "width": 16,
     "height": 16
    },
    {
     "id": 355,
     "name": "",
     "type": "",
     "visible": true,
     "rotation": 0,
     "x": 432,
     "y": 688,
     "width": 16,
     "height": 16
    },
    {
     "id": 356,
     "name": "",
     "type": "",
     "visible": true,
     "rotation": 0,
     "x": 448,
     "y": 688,
     "width": 16,
     "height": 16
    },
    {
     "id": 357,
     "name": "",
     "type": "",
     "visible": true,
     "rotation": 0,
     "x": 432,
     "y": 704,
     "width": 16,
     "height": 16
    },
    {
     "id": 358,
     "name": "",
     "type": "",
     "visible": true,
     "rotation": 0,
     "x": 448,
     "y": 704,
     "width": 16,
     "height": 16
    },
    {
     "id": 359,
     "name": "",
     "type": "",
     "visible": true,
     "rotation": 0,
     "x": 688,
     "y": 704,
     "width": 16,
     "height": 16
    },
    {
     "id": 360,
     "name": "",
     "type": "",
     "visible": true,
     "rotation": 0,
     "x": 704,
     "y": 704,
     "width": 16,
     "height": 16
    },
    {
     "id": 361,
     "name": "",
     "type": "",
     "visible": true,
     "rotation": 0,
     "x": 688,
     "y": 720,
     "width": 16,
     "height": 16
    },
    {
     "id": 362,
     "name": "",
     "type": "",
     "visible": true,
     "rotation": 0,
     "x": 704,
     "y": 720,
     "width": 16,
     "height": 16
    },
    {
     "id": 363,
     "name": "",
     "type": "",
     "visible": true,
     "rotation": 0,
     "x": 560,
     "y": 640,
     "width": 16,
     "height": 16
    },
    {
     "id": 364,
     "name": "",
     "type": "",
     "visible": true,
     "rotation": 0,
     "x": 576,
     "y": 640,
     "width": 16,
     "height": 16
    },
    {
     "id": 365,
     "name": "",
     "type": "",
     "visible": true,
     "rotation": 0,
     "x": 560,
     "y": 656,
     "width": 16,
     "height": 16
    },
    {
     "id": 366,
     "name": "",
     "type": "",
     "visible": true,
     "rotation": 0,
     "x": 576,
     "y": 656,
     "width": 16,
     "height": 16
    }
   ]
  },
  {
   "id": 2,
   "name": "Base",
   "type": "tilelayer",
   "visible": true,
   "opacity": 1,
   "x": 0,
   "y": 0,
   "width": 80,
   "height": 50,
   "data": [
    25,
    28,
    26,
    29,
    26,
    26,
    29,
    26,
    26,
    29,
    28,
    26,
    29,
    28,
    29,
    26,
    28,
    29,
    29,
    28,
    29,
    28,
    29,
    26,
    29,
    26,
    26,
    29,
    28,
    29,
    26,
    29,
    28,
    26,
    26,
    26,
    28,
    29,
    28,
    28,
    28,
    26,
    26,
    28,
    26,
    29,
    29,
    29,
    29,
    26,
    26,
    29,
    28,
    28,
    26,
    28,
    26,
    26,
    28,
    26,
    29,
    28,
    29,
    29,
    26,
    26,
    29,
    29,
    28,
    28,
    26,
    26,
    26,
    29,
    29,
    26,
    28,
    28,
    28,
    27,
    78,
    5,
    109,
    6,
    56,
    56,
    56,
    56,
    56,
    56,
    56,
    56,
    56,
    56,
    56,
    56,
    56,
    56,
    56,
    56,
    56,
    56,
    56,
    56,
    56,
    56,
    56,
    56,
    56,
    56,
    56,
    56,
    56,
    56,
    56,
    56,
    56,
    56,
    56,
    56,
    56,
    56,
    56,
    56,
    56,
    56,
    56,
    56,
    56,
    56,
    56,
    56,
    56,
    56,
    56,
    56,
    56,
    56,
    56,
    56,
    56,
    56,
    56,
    56,
    56,
    56,
    56,
    56,
    56,
    56,
    56,
    56,
    56,
    56,
    56,
    56,
    5,
    109,
    6,
    80,
    78,
    57,
    434,
    110,
    6,
    56,
    56,
    56,
    56,
    56,
    56,
    56,
    56,
    56,
    56,
    56,
    56,
    56,
    56,
    56,
    56,
    56,
    56,
    56,
    56,
    56,
    56,
    56,
    56,
    56,
    56,
    56,
    56,
    56,
    56,
    56,
    56,
    56,
    56,
    56,
    56,
    56,
    56,
    56,
    56,
    56,
    56,
    56,
    56,
    56,
    56,
    56,
    56,
    56,
    56,
    56,
    56,
    56,
    56,
    56,
    56,
    56,
    56,
    56,
    56,
    56,
    56,
    56,
    56,
    56,
    56,
    56,
    56,
    56,
    56,
    5,
    108,
    434,
    55,
    80,
    78,
    57,
    434,
    434,
    110,
    6,
    56,
    56,
    56,
    56,
    56,
    56,
    56,
    56,
    56,
    56,
    56,
    56,
    56,
    56,
    56,
    56,
    56,
    56,
    56,
    56,
    56,
    56,
    56,
    56,
    56,
    56,
    56,
    56,
    56,
    56,
    56,
    56,
    56,
    56,
    56,
    56,
    56,
    56,
    56,
    56,
    56,
    56,
    56,
    56,
    56,
    56,
    56,
    56,
    56,
    56,
    56,
    56,
    56,
    56,
    56,
    56,
    56,
    56,
    56,
    56,
    56,
    56,
    56,
    56,
    56,
    56,
    56,
    56,
    5,
    108,
    434,
    434,
    55,
    80,
    78,
    58,
    2,
    434,
    434,
    110,
    6,
    56,
    56,
    56,
    56,
    56,
    56,
    56,
    56,
    56,
    56,
    56,
    56,
    56,
    56,
    56,
    56,
    56,
    56,
    56,
    56,
    56,
    56,
    56,
    56,
    56,
    56,
    56,
    56,
    56,
    56,
    56,
    56,
    56,
    56,
    56,
    56,
    56,
    56,
    56,
    56,
    56,
    56,
    56,
    56,
    56,
    56,
    56,
    56,
    56,
    56,
    56,
    56,
    56,
    56,
    56,
    56,
    56,
    56,
    56,
    56,
    56,
    56,
    56,
    56,
    56,
    56,
    5,
    108,
    434,
    434,
    4,
    59,
    80,
    78,
    56,
    58,
    2,
    434,
    434,
    110,
    6,
    2459,
    2459,
    2459,
    2459,
    2459,
    2459,
    2459,
    2459,
    2459,
    2459,
    56,
    56,
    56,
    56,
    56,
    56,
    56,
    56,
    56,
    56,
    56,
    56,
    56,
    56,
    56,
    56,
    56,
    56,
    56,
    56,
    56,
    56,
    56,
    56,
    56,
    56,
    56,
    56,
    56,
    56,
    56,
    56,
    56,
    56,
    56,
    56,
    56,
    56,
    56,
    56,
    56,
    56,
    56,
    56,
    56,
    56,
    56,
    56,
    56,
    56,
    56,
    56,
    56,
    56,
    5,
    108,
    434,
    434,
    4,
    59,
    56,
    80,
    78,
    56,
    56,
    58,
    2,
    434,
    55,
    2459,
    2459,
    2459,
    2459,
    2459,
    2459,
    2459,
    2459,
    2459,
    2459,
    2459,
    2459,
    56,
    56,
    56,
    56,
    56,
    56,
    56,
    56,
    56,
    56,
    56,
    56,
    56,
    56,
    56,
    56,
    56,
    56,
    56,
    56,
    56,
    56,
    56,
    56,
    56,
    56,
    56,
    56,
    56,
    56,
    56,
    56,
    56,
    56,
    56,
    56,
    56,
    56,
    56,
    56,
    56,
    56,
    56,
    56,
    56,
    56,
    56,
    56,
    56,
    56,
    56,
    56,
    5,
    108,
    434,
    434,
    4,
    59,
    56,
    56,
    80,
    78,
    56,
    56,
    56,
    58,
    2,
    55,
    2459,
    2459,
    2459,
    2459,
    2459,
    2459,
    2459,
    2459,
    2459,
    2459,
    2459,
    2459,
    56,
    56,
    56,
    56,
    56,
    56,
    56,
    56,
    56,
    56,
    56,
    56,
    56,
    56,
    56,
    56,
    56,
    56,
    56,
    56,
    56,
    56,
    56,
    56,
    56,
    56,
    56,
    56,
    56,
    56,
    56,
    56,
    56,
    56,
    56,
    56,
    56,
    56,
    56,
    56,
    56,
    56,
    56,
    56,
    56,
    56,
    56,
    56,
    56,
    56,
    56,
    5,
    108,
    434,
    434,
    4,
    59,
    56,
    56,
    56,
    80,
    78,
    56,
    56,
    56,
    56,
    57,
    55,
    2459,
    2459,
    2459,
    2459,
    2459,
    2459,
    2459,
    2459,
    2459,
    2459,
    2459,
    2459,
    56,
    56,
    56,
    56,
    56,
    56,
    56,
    56,
    56,
    56,
    56,
    56,
    56,
    56,
    56,
    56,
    56,
    56,
    56,
    56,
    56,
    56,
    56,
    56,
    56,
    2459,
    2459,
    2459,
    2459,
    2459,
    2459,
    56,
    56,
    56,
    56,
    56,
    56,
    56,
    56,
    56,
    56,
    56,
    56,
    56,
    56,
    56,
    56,
    56,
    56,
    56,
    5,
    108,
    4,
    3,
    3,
    59,
    56,
    56,
    56,
    56,
    80,
    78,
    56,
    56,
    56,
    56,
    57,
    55,
    2459,
    2459,
    2459,
    2459,
    2459,
    2459,
    2459,
    2459,
    2459,
    2459,
    2459,
    2459,
    56,
    56,
    56,
    56,
    56,
    56,
    56,
    56,
    56,
    56,
    56,
    56,
    56,
    56,
    56,
    56,
    56,
    56,
    56,
    56,
    56,
    56,
    56,
    56,
    2459,
    2459,
    2459,
    2459,
    2459,
    2459,
    2459,
    2459,
    56,
    56,
    56,
    56,
    56,
    56,
    56,
    56,
    56,
    56,
    56,
    56,
    56,
    56,
    56,
    56,
    56,
    5,
    108,
    434,
    55,
    56,
    56,
    56,
    56,
    56,
    56,
    56,
    80,
    78,
    56,
    56,
    56,
    56,
    57,
    55,
    2459,
    2459,
    2459,
    2459,
    2459,
    2459,
    2459,
    2459,
    2459,
    2459,
    2459,
    2459,
    56,
    56,
    56,
    56,
    56,
    56,
    56,
    56,
    56,
    56,
    56,
    56,
    56,
    56,
    56,
    56,
    56,
    56,
    56,
    56,
    56,
    56,
    56,
    56,
    2459,
    2459,
    2459,
    2459,
    2459,
    2459,
    2459,
    2459,
    56,
    56,
    56,
    56,
    56,
    56,
    56,
    56,
    56,
    56,
    56,
    56,
    56,
    56,
    56,
    56,
    5,
    108,
    434,
    434,
    55,
    56,
    56,
    56,
    56,
    56,
    56,
    56,
    80,
    78,
    56,
    56,
    56,
    56,
    57,
    55,
    2459,
    2459,
    2459,
    2459,
    2459,
    2459,
    2459,
    2459,
    2459,
    2459,
    2459,
    2459,
    56,
    56,
    56,
    56,
    56,
    56,
    56,
    56,
    56,
    56,
    56,
    56,
    56,
    56,
    56,
    56,
    56,
    56,
    56,
    56,
    56,
    56,
    56,
    56,
    2459,
    2459,
    2459,
    2459,
    2459,
    2459,
    2459,
    2459,
    56,
    56,
    56,
    56,
    56,
    56,
    56,
    56,
    56,
    56,
    56,
    56,
    56,
    56,
    56,
    5,
    108,
    434,
    434,
    4,
    59,
    56,
    56,
    56,
    56,
    56,
    56,
    56,
    80,
    78,
    56,
    56,
    56,
    56,
    58,
    59,
    2459,
    2459,
    2459,
    2459,
    2459,
    2459,
    2459,
    2459,
    2459,
    2459,
    2459,
    2459,
    56,
    56,
    56,
    56,
    56,
    56,
    56,
    56,
    56,
    56,
    56,
    56,
    56,
    56,
    56,
    56,
    56,
    56,
    56,
    56,
    56,
    56,
    56,
    56,
    2459,
    2459,
    2459,
    2459,
    2459,
    2459,
    2459,
    2459,
    56,
    56,
    56,
    56,
    56,
    56,
    56,
    56,
    56,
    56,
    56,
    56,
    56,
    56,
    5,
    108,
    434,
    434,
    4,
    59,
    56,
    56,
    56,
    56,
    56,
    56,
    56,
    56,
    80,
    78,
    56,
    56,
    56,
    56,
    56,
    56,
    2459,
    2459,
    2459,
    2459,
    2459,
    2459,
    2459,
    2459,
    2459,
    2459,
    2459,
    2459,
    56,
    56,
    56,
    56,
    56,
    56,
    56,
    56,
    56,
    56,
    56,
    56,
    56,
    56,
    56,
    56,
    56,
    56,
    56,
    56,
    56,
    56,
    56,
    56,
    56,
    2459,
    2459,
    2459,
    2459,
    2459,
    2459,
    56,
    56,
    56,
    56,
    56,
    56,
    56,
    56,
    56,
    56,
    56,
    56,
    56,
    56,
    5,
    3,
    3,
    2,
    4,
    59,
    56,
    56,
    56,
    56,
    56,
    56,
    56,
    56,
    56,
    80,
    78,
    56,
    56,
    56,
    56,
    56,
    56,
    5,
    2459,
    2459,
    2459,
    2459,
    2459,
    2459,
    2459,
    2459,
    2459,
    2459,
    56,
    56,
    56,
    56,
    56,
    56,
    56,
    56,
    56,
    56,
    56,
    56,
    56,
    56,
    56,
    56,
    56,
    56,
    56,
    56,
    56,
    56,
    56,
    56,
    56,
    56,
    56,
    56,
    56,
    56,
    56,
    56,
    56,
    56,
    56,
    56,
    56,
    56,
    56,
    56,
    56,
    56,
    56,
    56,
    56,
    56,
    56,
    56,
    56,
    57,
    59,
    56,
    56,
    56,
    56,
    56,
    56,
    56,
    56,
    56,
    56,
    80,
    78,
    56,
    56,
    56,
    56,
    56,
    56,
    57,
    109,
    109,
    6,
    56,
    56,
    56,
    56,
    56,
    56,
    56,
    56,
    56,
    56,
    56,
    56,
    56,
    56,
    56,
    56,
    56,
    56,
    56,
    56,
    56,
    56,
    56,
    56,
    56,
    56,
    56,
    56,
    56,
    56,
    56,
    56,
    56,
    56,
    56,
    56,
    56,
    56,
    56,
    56,
    56,
    56,
    56,
    56,
    56,
    56,
    56,
    56,
    56,
    56,
    56,
    5,
    56,
    56,
    56,
    56,
    58,
    56,
    56,
    56,
    56,
    56,
    56,
    56,
    56,
    56,
    56,
    56,
    80,
    78,
    56,
    56,
    56,
    56,
    56,
    56,
    58,
    3,
    3,
    59,
    56,
    56,
    56,
    56,
    56,
    56,
    56,
    56,
    5,
    56,
    56,
    56,
    56,
    56,
    56,
    56,
    56,
    56,
    56,
    56,
    56,
    56,
    56,
    56,
    56,
    56,
    56,
    56,
    56,
    56,
    56,
    56,
    56,
    56,
    56,
    56,
    56,
    56,
    56,
    56,
    56,
    56,
    56,
    56,
    56,
    56,
    56,
    56,
    56,
    56,
    5,
    55,
    56,
    56,
    56,
    56,
    56,
    56,
    56,
    56,
    56,
    56,
    56,
    56,
    56,
    56,
    56,
    56,
    80,
    78,
    56,
    56,
    56,
    56,
    56,
    56,
    56,
    56,
    56,
    56,
    56,
    56,
    56,
    56,
    56,
    56,
    56,
    56,
    56,
    56,
    56,
    56,
    56,
    56,
    56,
    56,
    56,
    56,
    56,
    56,
    56,
    56,
    56,
    56,
    56,
    56,
    56,
    56,
    56,
    56,
    56,
    56,
    56,
    56,
    56,
    56,
    56,
    56,
    56,
    56,
    56,
    56,
    56,
    56,
    56,
    56,
    56,
    56,
    56,
    5,
    108,
    55,
    56,
    56,
    56,
    56,
    56,
    56,
    56,
    56,
    56,
    56,
    56,
    56,
    56,
    56,
    56,
    56,
    80,
    78,
    56,
    56,
    56,
    56,
    56,
    56,
    56,
    56,
    56,
    56,
    56,
    56,
    56,
    56,
    56,
    56,
    56,
    56,
    56,
    56,
    56,
    56,
    56,
    56,
    56,
    56,
    56,
    56,
    56,
    56,
    56,
    56,
    56,
    56,
    56,
    56,
    56,
    56,
    56,
    56,
    56,
    56,
    56,
    56,
    56,
    56,
    56,
    56,
    56,
    56,
    56,
    56,
    56,
    56,
    56,
    56,
    56,
    56,
    5,
    3,
    3,
    59,
    56,
    56,
    56,
    56,
    56,
    56,
    56,
    56,
    56,
    56,
    56,
    56,
    56,
    56,
    56,
    56,
    80,
    78,
    56,
    56,
    56,
    56,
    56,
    56,
    56,
    56,
    56,
    56,
    56,
    56,
    56,
    56,
    56,
    56,
    56,
    56,
    56,
    56,
    56,
    56,
    56,
    56,
    56,
    56,
    56,
    56,
    56,
    56,
    56,
    56,
    56,
    56,
    56,
    56,
    56,
    56,
    56,
    56,
    56,
    56,
    56,
    56,
    56,
    56,
    56,
    56,
    56,
    56,
    56,
    56,
    56,
    56,
    56,
    56,
    56,
    5,
    56,
    56,
    56,
    56,
    5,
    56,
    56,
    56,
    56,
    56,
    56,
    56,
    56,
    56,
    56,
    56,
    56,
    56,
    56,
    56,
    80,
    78,
    56,
    56,
    56,
    56,
    56,
    56,
    56,
    56,
    56,
    56,
    56,
    56,
    56,
    56,
    56,
    56,
    5,
    6,
    56,
    56,
    56,
    56,
    56,
    56,
    56,
    56,
    56,
    56,
    56,
    56,
    56,
    56,
    56,
    56,
    56,
    56,
    56,
    56,
    56,
    56,
    56,
    56,
    56,
    56,
    56,
    56,
    56,
    56,
    56,
    56,
    56,
    56,
    56,
    56,
    56,
    56,
    5,
    55,
    56,
    56,
    56,
    56,
    56,
    56,
    56,
    56,
    56,
    56,
    56,
    56,
    56,
    56,
    56,
    56,
    56,
    56,
    56,
    56,
    80,
    78,
    56,
    56,
    56,
    56,
    56,
    56,
    56,
    56,
    56,
    56,
    56,
    56,
    56,
    56,
    56,
    56,
    56,
    57,
    56,
    56,
    56,
    56,
    5,
    56,
    56,
    56,
    56,
    56,
    56,
    56,
    56,
    56,
    56,
    56,
    56,
    56,
    56,
    56,
    56,
    56,
    56,
    56,
    56,
    56,
    56,
    56,
    56,
    56,
    56,
    56,
    56,
    56,
    56,
    56,
    56,
    5,
    108,
    55,
    56,
    56,
    56,
    56,
    56,
    56,
    56,
    56,
    56,
    56,
    56,
    56,
    56,
    56,
    56,
    56,
    56,
    56,
    56,
    56,
    80,
    78,
    56,
    56,
    56,
    56,
    56,
    56,
    56,
    56,
    56,
    56,
    56,
    56,
    56,
    56,
    56,
    56,
    56,
    57,
    109,
    109,
    109,
    109,
    108,
    6,
    56,
    56,
    56,
    56,
    56,
    56,
    56,
    56,
    56,
    56,
    56,
    56,
    56,
    56,
    56,
    56,
    56,
    56,
    56,
    56,
    56,
    56,
    56,
    56,
    56,
    56,
    56,
    56,
    56,
    56,
    5,
    108,
    434,
    55,
    56,
    56,
    56,
    56,
    56,
    56,
    56,
    56,
    56,
    56,
    56,
    56,
    56,
    56,
    56,
    56,
    56,
    56,
    56,
    56,
    80,
    78,
    56,
    56,
    56,
    56,
    56,
    56,
    56,
    56,
    56,
    56,
    56,
    56,
    56,
    56,
    56,
    56,
    56,
    58,
    3,
    3,
    2,
    434,
    434,
    110,
    6,
    56,
    56,
    56,
    56,
    56,
    56,
    56,
    56,
    56,
    56,
    56,
    56,
    56,
    56,
    56,
    56,
    56,
    56,
    56,
    56,
    56,
    56,
    56,
    56,
    56,
    56,
    56,
    56,
    5,
    108,
    434,
    434,
    55,
    56,
    56,
    56,
    56,
    56,
    56,
    56,
    56,
    56,
    56,
    56,
    56,
    56,
    56,
    56,
    56,
    56,
    56,
    56,
    56,
    80,
    78,
    56,
    56,
    56,
    56,
    56,
    56,
    56,
    56,
    56,
    56,
    56,
    56,
    56,
    56,
    56,
    56,
    56,
    56,
    56,
    56,
    57,
    434,
    434,
    434,
    110,
    109,
    109,
    109,
    109,
    109,
    109,
    109,
    109,
    109,
    109,
    109,
    109,
    109,
    109,
    109,
    109,
    109,
    109,
    109,
    109,
    109,
    109,
    109,
    109,
    109,
    109,
    109,
    109,
    108,
    434,
    434,
    4,
    59,
    56,
    56,
    56,
    56,
    56,
    56,
    56,
    56,
    56,
    56,
    56,
    56,
    56,
    56,
    56,
    56,
    56,
    56,
    56,
    56,
    80,
    78,
    56,
    56,
    56,
    56,
    56,
    56,
    56,
    56,
    56,
    56,
    56,
    56,
    56,
    56,
    56,
    56,
    56,
    56,
    56,
    5,
    108,
    434,
    434,
    434,
    434,
    434,
    434,
    434,
    434,
    434,
    434,
    434,
    434,
    434,
    434,
    434,
    434,
    434,
    434,
    434,
    434,
    434,
    434,
    434,
    434,
    434,
    434,
    434,
    434,
    434,
    434,
    434,
    434,
    434,
    434,
    434,
    55,
    56,
    56,
    56,
    56,
    56,
    56,
    56,
    56,
    56,
    56,
    56,
    56,
    56,
    56,
    56,
    56,
    56,
    56,
    56,
    56,
    56,
    80,
    78,
    56,
    56,
    56,
    56,
    56,
    56,
    56,
    56,
    56,
    56,
    56,
    56,
    56,
    56,
    56,
    56,
    56,
    56,
    56,
    57,
    434,
    434,
    434,
    434,
    434,
    434,
    434,
    434,
    434,
    4,
    3,
    3,
    3,
    3,
    3,
    3,
    3,
    3,
    2,
    434,
    4,
    3,
    3,
    3,
    3,
    3,
    3,
    3,
    3,
    3,
    3,
    3,
    3,
    2,
    434,
    434,
    110,
    6,
    56,
    56,
    56,
    56,
    56,
    56,
    56,
    56,
    56,
    56,
    56,
    56,
    56,
    56,
    56,
    56,
    56,
    56,
    56,
    56,
    80,
    78,
    56,
    56,
    56,
    56,
    56,
    56,
    56,
    56,
    56,
    56,
    56,
    56,
    56,
    56,
    56,
    56,
    56,
    56,
    56,
    57,
    434,
    434,
    434,
    434,
    434,
    434,
    434,
    434,
    4,
    59,
    56,
    56,
    56,
    56,
    56,
    56,
    56,
    56,
    57,
    434,
    55,
    56,
    56,
    56,
    56,
    56,
    56,
    56,
    56,
    56,
    56,
    56,
    56,
    58,
    2,
    434,
    434,
    110,
    6,
    56,
    56,
    56,
    56,
    56,
    56,
    56,
    56,
    56,
    56,
    56,
    56,
    56,
    56,
    56,
    56,
    56,
    56,
    56,
    80,
    78,
    56,
    56,
    56,
    56,
    56,
    56,
    56,
    56,
    56,
    56,
    56,
    56,
    56,
    56,
    56,
    56,
    56,
    56,
    56,
    57,
    434,
    434,
    434,
    434,
    434,
    434,
    434,
    4,
    59,
    56,
    56,
    56,
    56,
    56,
    56,
    56,
    56,
    56,
    57,
    434,
    55,
    56,
    56,
    56,
    56,
    56,
    56,
    56,
    56,
    56,
    56,
    56,
    56,
    56,
    58,
    2,
    434,
    434,
    110,
    6,
    56,
    56,
    56,
    56,
    56,
    56,
    56,
    56,
    56,
    56,
    56,
    56,
    56,
    56,
    56,
    56,
    56,
    56,
    80,
    78,
    56,
    56,
    56,
    56,
    56,
    56,
    56,
    56,
    56,
    56,
    56,
    56,
    56,
    56,
    56,
    56,
    56,
    56,
    56,
    58,
    2,
    434,
    434,
    434,
    434,
    434,
    4,
    59,
    56,
    56,
    56,
    56,
    56,
    56,
    56,
    56,
    56,
    56,
    57,
    434,
    55,
    56,
    56,
    56,
    56,
    56,
    56,
    56,
    56,
    56,
    56,
    56,
    56,
    56,
    56,
    58,
    2,
    434,
    55,
    56,
    56,
    56,
    79,
    56,
    56,
    56,
    56,
    56,
    56,
    56,
    56,
    56,
    56,
    56,
    56,
    56,
    56,
    56,
    80,
    78,
    56,
    56,
    56,
    56,
    56,
    56,
    56,
    56,
    56,
    56,
    56,
    56,
    56,
    56,
    56,
    56,
    56,
    56,
    56,
    56,
    57,
    434,
    434,
    434,
    434,
    4,
    59,
    56,
    56,
    56,
    56,
    56,
    56,
    56,
    56,
    56,
    56,
    56,
    57,
    434,
    55,
    56,
    56,
    56,
    56,
    56,
    56,
    56,
    56,
    56,
    56,
    56,
    56,
    56,
    56,
    56,
    58,
    2,
    55,
    56,
    56,
    56,
    56,
    56,
    56,
    56,
    56,
    56,
    56,
    56,
    56,
    56,
    56,
    56,
    56,
    56,
    56,
    56,
    80,
    78,
    56,
    56,
    56,
    56,
    56,
    56,
    56,
    56,
    56,
    56,
    56,
    56,
    56,
    56,
    56,
    56,
    56,
    56,
    56,
    56,
    57,
    434,
    434,
    434,
    4,
    59,
    56,
    56,
    56,
    56,
    56,
    56,
    56,
    56,
    56,
    56,
    56,
    56,
    57,
    434,
    55,
    56,
    56,
    56,
    56,
    56,
    56,
    56,
    56,
    56,
    56,
    56,
    56,
    56,
    56,
    56,
    56,
    57,
    55,
    56,
    56,
    56,
    56,
    56,
    56,
    56,
    56,
    56,
    56,
    56,
    56,
    56,
    56,
    56,
    56,
    56,
    56,
    56,
    80,
    78,
    56,
    56,
    56,
    56,
    56,
    56,
    56,
    56,
    56,
    56,
    56,
    56,
    56,
    56,
    56,
    56,
    56,
    56,
    56,
    56,
    57,
    434,
    434,
    4,
    59,
    56,
    56,
    56,
    56,
    56,
    56,
    56,
    56,
    56,
    56,
    56,
    56,
    56,
    57,
    434,
    110,
    6,
    56,
    56,
    56,
    56,
    56,
    56,
    56,
    56,
    56,
    56,
    56,
    56,
    56,
    56,
    56,
    57,
    55,
    56,
    56,
    56,
    56,
    56,
    56,
    5,
    109,
    109,
    109,
    6,
    56,
    56,
    56,
    56,
    56,
    56,
    56,
    56,
    80,
    78,
    56,
    56,
    56,
    56,
    56,
    56,
    56,
    56,
    56,
    56,
    56,
    56,
    56,
    56,
    56,
    56,
    56,
    56,
    56,
    56,
    57,
    434,
    4,
    59,
    56,
    56,
    56,
    56,
    56,
    56,
    56,
    56,
    56,
    56,
    56,
    56,
    56,
    56,
    57,
    434,
    434,
    110,
    6,
    56,
    56,
    56,
    56,
    56,
    56,
    56,
    56,
    56,
    56,
    56,
    56,
    56,
    56,
    57,
    110,
    109,
    109,
    109,
    6,
    56,
    5,
    108,
    434,
    434,
    434,
    110,
    6,
    56,
    56,
    56,
    56,
    56,
    56,
    56,
    80,
    78,
    56,
    56,
    56,
    56,
    56,
    56,
    56,
    56,
    56,
    56,
    56,
    56,
    56,
    56,
    56,
    56,
    56,
    56,
    56,
    56,
    57,
    4,
    59,
    56,
    56,
    56,
    56,
    56,
    56,
    56,
    56,
    56,
    56,
    56,
    56,
    56,
    56,
    56,
    58,
    2,
    434,
    434,
    110,
    6,
    56,
    56,
    56,
    56,
    56,
    56,
    56,
    56,
    56,
    56,
    56,
    56,
    56,
    58,
    3,
    3,
    3,
    3,
    59,
    56,
    57,
    434,
    434,
    434,
    434,
    434,
    55,
    56,
    56,
    56,
    56,
    56,
    56,
    56,
    80,
    78,
    56,
    56,
    56,
    56,
    56,
    56,
    56,
    56,
    56,
    56,
    56,
    56,
    56,
    56,
    56,
    56,
    56,
    56,
    56,
    56,
    57,
    55,
    56,
    56,
    56,
    56,
    56,
    56,
    56,
    56,
    56,
    56,
    56,
    56,
    56,
    56,
    56,
    56,
    56,
    58,
    2,
    434,
    434,
    110,
    6,
    56,
    56,
    56,
    56,
    56,
    56,
    56,
    56,
    56,
    56,
    56,
    56,
    56,
    56,
    56,
    56,
    56,
    56,
    56,
    57,
    434,
    434,
    434,
    434,
    434,
    55,
    56,
    56,
    56,
    56,
    56,
    56,
    56,
    80,
    78,
    56,
    56,
    56,
    56,
    56,
    56,
    56,
    56,
    56,
    56,
    56,
    56,
    56,
    56,
    56,
    56,
    56,
    56,
    56,
    56,
    57,
    55,
    56,
    56,
    56,
    56,
    56,
    56,
    56,
    56,
    56,
    56,
    56,
    56,
    56,
    56,
    56,
    56,
    56,
    56,
    58,
    2,
    434,
    434,
    110,
    6,
    56,
    824,
    2459,
    2459,
    2459,
    824,
    56,
    56,
    56,
    56,
    56,
    56,
    56,
    56,
    56,
    56,
    56,
    56,
    57,
    434,
    434,
    434,
    434,
    434,
    55,
    56,
    56,
    56,
    56,
    56,
    56,
    56,
    80,
    78,
    56,
    56,
    56,
    56,
    56,
    56,
    56,
    56,
    56,
    56,
    56,
    56,
    56,
    56,
    56,
    56,
    56,
    5,
    109,
    109,
    3,
    59,
    56,
    56,
    56,
    56,
    56,
    56,
    56,
    56,
    56,
    56,
    56,
    56,
    56,
    56,
    56,
    56,
    56,
    56,
    56,
    58,
    2,
    434,
    434,
    55,
    56,
    2459,
    2459,
    2459,
    2459,
    2459,
    56,
    56,
    56,
    56,
    56,
    56,
    56,
    56,
    56,
    56,
    56,
    56,
    58,
    2,
    434,
    434,
    434,
    4,
    59,
    56,
    56,
    56,
    56,
    56,
    56,
    56,
    80,
    78,
    56,
    56,
    56,
    56,
    56,
    56,
    56,
    56,
    56,
    56,
    56,
    56,
    56,
    56,
    56,
    56,
    56,
    58,
    56,
    56,
    56,
    56,
    56,
    56,
    56,
    56,
    56,
    56,
    56,
    56,
    56,
    56,
    56,
    56,
    56,
    56,
    56,
    56,
    56,
    56,
    56,
    56,
    58,
    2,
    434,
    55,
    56,
    2459,
    2459,
    2459,
    2459,
    2459,
    56,
    56,
    56,
    56,
    56,
    56,
    56,
    56,
    56,
    56,
    56,
    56,
    56,
    58,
    3,
    3,
    3,
    59,
    56,
    56,
    56,
    56,
    56,
    56,
    56,
    56,
    80,
    78,
    56,
    56,
    56,
    56,
    56,
    56,
    56,
    56,
    56,
    56,
    56,
    56,
    56,
    56,
    56,
    56,
    56,
    56,
    56,
    56,
    56,
    56,
    56,
    56,
    56,
    56,
    56,
    56,
    56,
    56,
    56,
    56,
    56,
    56,
    56,
    56,
    56,
    56,
    56,
    56,
    56,
    56,
    56,
    58,
    2,
    55,
    56,
    2459,
    2459,
    2459,
    2459,
    2459,
    56,
    56,
    56,
    56,
    56,
    56,
    56,
    56,
    56,
    56,
    56,
    56,
    56,
    56,
    56,
    56,
    56,
    56,
    56,
    56,
    56,
    56,
    56,
    56,
    56,
    56,
    80,
    78,
    56,
    56,
    56,
    56,
    56,
    56,
    56,
    56,
    56,
    56,
    56,
    56,
    56,
    56,
    56,
    56,
    56,
    56,
    56,
    56,
    56,
    56,
    56,
    56,
    56,
    56,
    56,
    56,
    56,
    56,
    56,
    56,
    56,
    56,
    56,
    56,
    56,
    56,
    56,
    56,
    56,
    56,
    56,
    56,
    58,
    55,
    56,
    824,
    2459,
    2459,
    2459,
    824,
    56,
    56,
    56,
    56,
    56,
    56,
    56,
    56,
    56,
    56,
    56,
    56,
    56,
    56,
    56,
    56,
    56,
    56,
    56,
    56,
    56,
    56,
    56,
    56,
    56,
    56,
    80,
    78,
    56,
    56,
    56,
    56,
    56,
    56,
    56,
    56,
    56,
    56,
    56,
    56,
    56,
    56,
    56,
    56,
    56,
    56,
    56,
    56,
    56,
    56,
    56,
    56,
    56,
    56,
    56,
    56,
    56,
    56,
    56,
    56,
    56,
    56,
    56,
    56,
    56,
    56,
    56,
    56,
    56,
    56,
    56,
    56,
    56,
    57,
    56,
    56,
    56,
    56,
    56,
    56,
    56,
    56,
    56,
    56,
    56,
    56,
    56,
    56,
    56,
    56,
    56,
    56,
    56,
    56,
    56,
    56,
    56,
    56,
    56,
    56,
    56,
    56,
    56,
    56,
    56,
    56,
    80,
    78,
    56,
    56,
    56,
    56,
    56,
    56,
    56,
    56,
    56,
    56,
    56,
    56,
    56,
    56,
    56,
    56,
    56,
    56,
    56,
    56,
    56,
    56,
    56,
    56,
    56,
    56,
    56,
    56,
    56,
    56,
    56,
    56,
    56,
    56,
    56,
    56,
    56,
    56,
    56,
    56,
    56,
    56,
    56,
    56,
    56,
    57,
    56,
    56,
    56,
    56,
    56,
    56,
    56,
    56,
    56,
    56,
    56,
    56,
    56,
    56,
    56,
    56,
    56,
    56,
    56,
    56,
    56,
    56,
    56,
    56,
    56,
    56,
    56,
    56,
    56,
    56,
    56,
    56,
    80,
    78,
    56,
    56,
    56,
    56,
    56,
    56,
    56,
    56,
    56,
    56,
    56,
    56,
    56,
    56,
    56,
    56,
    56,
    56,
    56,
    56,
    56,
    56,
    56,
    56,
    56,
    56,
    56,
    56,
    56,
    56,
    56,
    56,
    56,
    56,
    56,
    56,
    56,
    56,
    56,
    56,
    56,
    56,
    56,
    56,
    56,
    57,
    109,
    109,
    109,
    109,
    109,
    6,
    56,
    56,
    56,
    56,
    56,
    56,
    56,
    56,
    56,
    56,
    56,
    56,
    56,
    56,
    56,
    56,
    56,
    56,
    56,
    56,
    56,
    56,
    56,
    56,
    56,
    56,
    80,
    78,
    56,
    56,
    56,
    56,
    56,
    56,
    56,
    56,
    56,
    56,
    56,
    56,
    56,
    56,
    56,
    56,
    56,
    56,
    56,
    56,
    56,
    56,
    56,
    56,
    56,
    56,
    56,
    56,
    56,
    56,
    56,
    56,
    56,
    56,
    56,
    56,
    56,
    56,
    56,
    56,
    56,
    56,
    56,
    56,
    56,
    58,
    2,
    434,
    434,
    434,
    434,
    110,
    6,
    56,
    56,
    56,
    56,
    56,
    56,
    56,
    56,
    56,
    56,
    56,
    56,
    56,
    56,
    56,
    56,
    56,
    56,
    56,
    56,
    56,
    56,
    56,
    56,
    56,
    80,
    78,
    56,
    56,
    56,
    56,
    56,
    56,
    56,
    56,
    56,
    56,
    56,
    56,
    56,
    56,
    56,
    56,
    56,
    56,
    56,
    56,
    56,
    56,
    56,
    56,
    56,
    56,
    56,
    56,
    56,
    56,
    56,
    56,
    56,
    56,
    56,
    56,
    56,
    56,
    56,
    56,
    56,
    56,
    56,
    56,
    56,
    56,
    57,
    434,
    434,
    434,
    434,
    434,
    55,
    56,
    56,
    56,
    56,
    56,
    56,
    56,
    56,
    56,
    56,
    56,
    56,
    56,
    56,
    56,
    56,
    56,
    56,
    56,
    56,
    56,
    56,
    56,
    56,
    56,
    80,
    78,
    56,
    56,
    56,
    56,
    56,
    56,
    56,
    56,
    56,
    56,
    56,
    56,
    56,
    56,
    56,
    56,
    56,
    56,
    56,
    56,
    56,
    56,
    56,
    56,
    56,
    56,
    56,
    56,
    56,
    56,
    56,
    56,
    56,
    56,
    56,
    56,
    56,
    56,
    56,
    56,
    56,
    56,
    56,
    56,
    56,
    56,
    58,
    2,
    434,
    434,
    434,
    4,
    59,
    56,
    56,
    56,
    56,
    56,
    56,
    56,
    56,
    56,
    56,
    56,
    56,
    56,
    56,
    56,
    56,
    56,
    56,
    56,
    56,
    56,
    56,
    56,
    56,
    56,
    80,
    78,
    56,
    56,
    56,
    56,
    56,
    56,
    56,
    56,
    56,
    56,
    56,
    56,
    56,
    56,
    56,
    56,
    56,
    56,
    56,
    56,
    56,
    56,
    56,
    56,
    56,
    56,
    56,
    56,
    56,
    56,
    56,
    56,
    56,
    56,
    56,
    56,
    56,
    56,
    56,
    56,
    56,
    56,
    56,
    56,
    56,
    56,
    56,
    58,
    3,
    3,
    3,
    59,
    56,
    56,
    56,
    56,
    56,
    56,
    56,
    56,
    56,
    56,
    56,
    56,
    56,
    56,
    56,
    56,
    56,
    56,
    56,
    56,
    56,
    56,
    56,
    56,
    56,
    56,
    80,
    434,
    434,
    434,
    434,
    434,
    434,
    434,
    434,
    434,
    434,
    434,
    434,
    434,
    434,
    434,
    434,
    434,
    434,
    434,
    434,
    434,
    434,
    434,
    434,
    434,
    434,
    434,
    434,
    434,
    434,
    434,
    434,
    434,
    434,
    434,
    434,
    434,
    434,
    434,
    434,
    434,
    434,
    434,
    434,
    434,
    434,
    434,
    434,
    434,
    434,
    434,
    434,
    434,
    434,
    434,
    434,
    434,
    434,
    434,
    434,
    434,
    434,
    434,
    434,
    434,
    434,
    434,
    434,
    434,
    434,
    434,
    434,
    434,
    434,
    434,
    434,
    434,
    434,
    434,
    434,
    434,
    434,
    434,
    434,
    434,
    434,
    434,
    434,
    434,
    434,
    434,
    434,
    434,
    434,
    434,
    434,
    434,
    434,
    434,
    434,
    434,
    434,
    434,
    434,
    434,
    434,
    434,
    434,
    434,
    434,
    434,
    434,
    434,
    434,
    434,
    434,
    434,
    434,
    434,
    434,
    434,
    434,
    434,
    434,
    434,
    434,
    434,
    434,
    434,
    434,
    434,
    434,
    434,
    434,
    434,
    434,
    434,
    434,
    434,
    434,
    434,
    434,
    434,
    434,
    434,
    434,
    434,
    434,
    434,
    434,
    434,
    434,
    434,
    434,
    434,
    434,
    434,
    434,
    434,
    434
   ]
  },
  {
   "id": 3,
   "name": "Agua",
   "type": "tilelayer",
   "visible": true,
   "opacity": 1,
   "x": 0,
   "y": 0,
   "width": 80,
   "height": 50,
   "data": [
    0,
    0,
    0,
    0,
    0,
    0,
    0,
    0,
    0,
    0,
    0,
    0,
    0,
    0,
    0,
    0,
    0,
    0,
    0,
    0,
    0,
    0,
    0,
    0,
    0,
    0,
    0,
    0,
    0,
    0,
    0,
    0,
    0,
    0,
    0,
    0,
    0,
    0,
    0,
    0,
    0,
    0,
    0,
    0,
    0,
    0,
    0,
    0,
    0,
    0,
    0,
    0,
    0,
    0,
    0,
    0,
    0,
    0,
    0,
    0,
    0,
    0,
    0,
    0,
    0,
    0,
    0,
    0,
    0,
    0,
    0,
    0,
    0,
    0,
    0,
    0,
    0,
    0,
    0,
    0,
    0,
    0,
    0,
    0,
    0,
    0,
    0,
    0,
    0,
    0,
    0,
    0,
    0,
    0,
    0,
    0,
    0,
    0,
    0,
    0,
    0,
    0,
    0,
    0,
    0,
    0,
    0,
    0,
    0,
    0,
    0,
    0,
    0,
    0,
    0,
    0,
    0,
    0,
    0,
    0,
    0,
    0,
    0,
    0,
    0,
    0,
    0,
    0,
    0,
    0,
    0,
    0,
    0,
    0,
    0,
    0,
    0,
    0,
    0,
    0,
    0,
    0,
    0,
    0,
    0,
    0,
    0,
    0,
    0,
    0,
    0,
    0,
    0,
    0,
    0,
    0,
    0,
    0,
    0,
    0,
    0,
    0,
    0,
    0,
    0,
    0,
    0,
    0,
    0,
    0,
    0,
    0,
    6017,
    0,
    0,
    6009,
    0,
    6009,
    0,
    6017,
    0,
    0,
    0,
    0,
    0,
    0,
    0,
    0,
    6045,
    0,
    0,
    0,
    6050,
    0,
    0,
    6045,
    0,
    0,
    6046,
    0,
    0,
    0,
    0,
    0,
    0,
    0,
    0,
    0,
    0,
    0,
    0,
    0,
    0,
    0,
    0,
    6046,
    0,
    0,
    6046,
    0,
    0,
    0,
    6050,
    0,
    0,
    6046,
    0,
    0,
    0,
    0,
    0,
    0,
    0,
    0,
    0,
    0,
    0,
    0,
    0,
    0,
    0,
    0,
    0,
    0,
    0,
    0,
    0,
    6009,
    0,
    0,
    0,
    0,
    0,
    0,
    0,
    0,
    0,
    0,
    0,
    0,
    0,
    0,
    0,
    0,
    0,
    0,
    0,
    0,
    0,
    0,
    0,
    0,
    0,
    0,
    0,
    0,
    0,
    0,
    0,
    0,
    0,
    5349,
    5350,
    5351,
    5352,
    5349,
    5350,
    5351,
    5352,
    0,
    0,
    0,
    0,
    0,
    0,
    0,
    0,
    0,
    0,
    0,
    0,
    0,
    0,
    0,
    0,
    0,
    0,
    6046,
    0,
    0,
    0,
    0,
    0,
    0,
    0,
    0,
    0,
    0,
    0,
    0,
    0,
    0,
    0,
    0,
    0,
    0,
    0,
    0,
    0,
    0,
    0,
    0,
    0,
    0,
    0,
    0,
    0,
    0,
    0,
    0,
    0,
    6017,
    0,
    0,
    0,
    0,
    0,
    0,
    0,
    0,
    0,
    0,
    0,
    5349,
    5350,
    5351,
    5352,
    5349,
    5350,
    5351,
    5352,
    5365,
    5366,
    5367,
    5368,
    5365,
    5366,
    5367,
    5368,
    0,
    0,
    0,
    0,
    0,
    0,
    0,
    6045,
    0,
    0,
    0,
    6045,
    0,
    0,
    0,
    0,
    0,
    0,
    0,
    0,
    0,
    6050,
    0,
    6049,
    0,
    0,
    0,
    0,
    0,
    0,
    0,
    0,
    0,
    0,
    0,
    0,
    0,
    0,
    0,
    787,
    941,
    940,
    941,
    941,
    863,
    940,
    940,
    940,
    788,
    0,
    0,
    0,
    0,
    0,
    0,
    6050,
    0,
    0,
    0,
    0,
    5349,
    5350,
    5351,
    5352,
    5365,
    5366,
    5367,
    5368,
    5365,
    5366,
    5367,
    5368,
    5381,
    5382,
    5383,
    5384,
    5381,
    5382,
    5383,
    5384,
    0,
    0,
    6049,
    0,
    0,
    0,
    0,
    0,
    0,
    0,
    0,
    0,
    0,
    0,
    0,
    0,
    0,
    0,
    0,
    0,
    0,
    0,
    0,
    0,
    0,
    0,
    0,
    0,
    0,
    0,
    0,
    0,
    0,
    6009,
    0,
    0,
    0,
    0,
    789,
    864,
    0,
    0,
    0,
    0,
    0,
    0,
    0,
    0,
    862,
    788,
    0,
    0,
    6049,
    0,
    0,
    0,
    0,
    0,
    0,
    0,
    5365,
    5366,
    5367,
    5368,
    5381,
    5382,
    5383,
    5384,
    5381,
    5382,
    5383,
    5384,
    5397,
    5398,
    5399,
    5400,
    5397,
    5398,
    5399,
    5400,
    0,
    0,
    0,
    5349,
    5350,
    5351,
    5352,
    0,
    0,
    0,
    0,
    0,
    6050,
    0,
    0,
    0,
    0,
    0,
    0,
    0,
    0,
    0,
    0,
    0,
    0,
    0,
    0,
    0,
    0,
    0,
    0,
    0,
    0,
    0,
    0,
    0,
    0,
    0,
    825,
    0,
    0,
    0,
    0,
    0,
    0,
    0,
    0,
    0,
    0,
    822,
    0,
    0,
    0,
    0,
    0,
    0,
    0,
    0,
    0,
    0,
    5381,
    5382,
    5383,
    5384,
    5397,
    5398,
    5399,
    5400,
    5397,
    5398,
    5399,
    5400,
    5413,
    5414,
    5415,
    5416,
    5413,
    5414,
    5415,
    5416,
    0,
    0,
    0,
    5365,
    5366,
    5367,
    5368,
    6050,
    0,
    0,
    0,
    0,
    0,
    0,
    0,
    0,
    0,
    0,
    0,
    0,
    6049,
    0,
    0,
    0,
    0,
    0,
    0,
    0,
    0,
    0,
    0,
    0,
    0,
    0,
    0,
    0,
    0,
    0,
    825,
    0,
    0,
    0,
    0,
    0,
    0,
    0,
    0,
    0,
    0,
    823,
    0,
    0,
    0,
    0,
    6050,
    0,
    0,
    0,
    0,
    0,
    5397,
    5398,
    5399,
    5400,
    5413,
    5414,
    5415,
    5416,
    5413,
    5414,
    5415,
    5416,
    0,
    0,
    0,
    787,
    863,
    940,
    941,
    940,
    788,
    0,
    0,
    5381,
    5382,
    5383,
    5384,
    0,
    0,
    0,
    0,
    0,
    0,
    0,
    6050,
    0,
    0,
    6046,
    0,
    0,
    0,
    0,
    0,
    0,
    0,
    0,
    0,
    0,
    0,
    0,
    0,
    0,
    0,
    0,
    6045,
    0,
    0,
    0,
    825,
    0,
    0,
    0,
    0,
    0,
    0,
    0,
    0,
    0,
    0,
    823,
    0,
    6046,
    0,
    0,
    0,
    0,
    0,
    0,
    6049,
    0,
    5413,
    5414,
    5415,
    5416,
    0,
    0,
    0,
    0,
    0,
    0,
    5349,
    5350,
    5351,
    5352,
    789,
    864,
    0,
    0,
    0,
    0,
    862,
    788,
    0,
    5397,
    5398,
    5399,
    5400,
    0,
    0,
    0,
    6050,
    0,
    0,
    0,
    0,
    0,
    0,
    0,
    0,
    0,
    0,
    0,
    0,
    5353,
    5354,
    5355,
    5356,
    0,
    0,
    0,
    0,
    0,
    0,
    0,
    0,
    0,
    0,
    0,
    825,
    0,
    0,
    0,
    0,
    0,
    0,
    0,
    0,
    0,
    0,
    823,
    0,
    0,
    0,
    6046,
    0,
    0,
    6049,
    0,
    0,
    0,
    6045,
    0,
    5349,
    5350,
    5351,
    5352,
    6046,
    0,
    0,
    0,
    5365,
    5366,
    5367,
    5368,
    825,
    0,
    0,
    0,
    0,
    0,
    0,
    823,
    0,
    5413,
    5414,
    5415,
    5416,
    0,
    0,
    0,
    0,
    0,
    0,
    0,
    0,
    0,
    0,
    0,
    0,
    0,
    0,
    0,
    0,
    5369,
    5370,
    5371,
    5372,
    0,
    0,
    0,
    0,
    0,
    0,
    0,
    0,
    0,
    0,
    0,
    825,
    0,
    0,
    0,
    0,
    0,
    0,
    0,
    0,
    0,
    0,
    823,
    0,
    0,
    0,
    0,
    0,
    0,
    0,
    0,
    0,
    0,
    0,
    0,
    5365,
    5366,
    5367,
    5368,
    5353,
    5354,
    5355,
    5356,
    5381,
    5382,
    5383,
    5384,
    825,
    0,
    0,
    0,
    0,
    0,
    0,
    822,
    0,
    0,
    0,
    0,
    6049,
    0,
    0,
    6049,
    0,
    0,
    0,
    6050,
    0,
    0,
    0,
    0,
    0,
    0,
    0,
    0,
    0,
    5385,
    5386,
    5387,
    5388,
    0,
    0,
    0,
    0,
    0,
    0,
    0,
    0,
    6045,
    0,
    0,
    825,
    0,
    0,
    0,
    0,
    0,
    0,
    0,
    0,
    0,
    0,
    822,
    0,
    6046,
    0,
    0,
    0,
    6045,
    0,
    0,
    0,
    0,
    0,
    0,
    5381,
    5382,
    5383,
    5384,
    5369,
    5370,
    5371,
    5372,
    5397,
    5398,
    5399,
    5400,
    826,
    786,
    0,
    0,
    0,
    0,
    784,
    827,
    0,
    0,
    0,
    0,
    0,
    0,
    0,
    0,
    0,
    0,
    0,
    0,
    0,
    0,
    0,
    0,
    0,
    0,
    0,
    0,
    0,
    5401,
    5402,
    5403,
    5404,
    0,
    0,
    0,
    0,
    0,
    0,
    6045,
    5349,
    5350,
    5351,
    5352,
    826,
    786,
    0,
    0,
    0,
    0,
    0,
    0,
    0,
    0,
    784,
    827,
    0,
    0,
    0,
    0,
    0,
    0,
    0,
    0,
    0,
    0,
    0,
    6045,
    5397,
    5398,
    5399,
    5400,
    5385,
    5386,
    5387,
    5388,
    5413,
    5414,
    5415,
    5416,
    0,
    826,
    901,
    785,
    785,
    902,
    827,
    0,
    0,
    0,
    6045,
    0,
    0,
    0,
    0,
    0,
    0,
    0,
    0,
    0,
    0,
    0,
    0,
    0,
    0,
    0,
    0,
    0,
    0,
    5417,
    5418,
    5419,
    5420,
    0,
    0,
    0,
    0,
    0,
    0,
    0,
    5365,
    5366,
    5367,
    5368,
    0,
    826,
    785,
    902,
    902,
    902,
    902,
    901,
    785,
    902,
    827,
    0,
    0,
    0,
    0,
    0,
    0,
    0,
    0,
    0,
    0,
    6046,
    0,
    0,
    5413,
    5414,
    5415,
    5416,
    5401,
    5402,
    5403,
    5404,
    6050,
    0,
    6050,
    0,
    0,
    0,
    0,
    0,
    0,
    0,
    0,
    0,
    6045,
    0,
    0,
    0,
    0,
    0,
    0,
    0,
    0,
    0,
    0,
    0,
    5349,
    5350,
    5351,
    5352,
    0,
    0,
    0,
    0,
    0,
    0,
    0,
    5349,
    5350,
    5351,
    5352,
    0,
    0,
    0,
    0,
    0,
    5381,
    5382,
    5383,
    5384,
    0,
    0,
    0,
    0,
    5353,
    5354,
    5355,
    5356,
    5349,
    5350,
    5351,
    5352,
    6046,
    0,
    6050,
    0,
    6049,
    0,
    0,
    0,
    0,
    0,
    0,
    0,
    6049,
    0,
    6050,
    0,
    5417,
    5418,
    5419,
    5420,
    0,
    0,
    0,
    0,
    0,
    6017,
    0,
    0,
    0,
    6046,
    0,
    0,
    0,
    0,
    0,
    0,
    0,
    0,
    0,
    0,
    0,
    0,
    0,
    0,
    5365,
    5366,
    5367,
    5368,
    0,
    0,
    0,
    5353,
    5354,
    5355,
    5356,
    5365,
    5366,
    5367,
    5368,
    0,
    0,
    0,
    0,
    0,
    5397,
    5398,
    5399,
    5400,
    0,
    0,
    0,
    0,
    5369,
    5370,
    5371,
    5372,
    5365,
    5366,
    5367,
    5368,
    0,
    0,
    0,
    0,
    0,
    0,
    0,
    0,
    6050,
    0,
    6045,
    0,
    0,
    0,
    0,
    0,
    0,
    0,
    0,
    0,
    0,
    0,
    0,
    0,
    0,
    0,
    0,
    0,
    0,
    0,
    0,
    0,
    0,
    0,
    0,
    0,
    0,
    0,
    0,
    0,
    6046,
    0,
    0,
    0,
    5381,
    5382,
    5383,
    5384,
    0,
    0,
    0,
    5369,
    5370,
    5371,
    5372,
    5381,
    5382,
    5383,
    5384,
    0,
    0,
    0,
    0,
    0,
    5413,
    5414,
    5415,
    5416,
    5349,
    5350,
    5351,
    5352,
    5385,
    5386,
    5387,
    5388,
    5381,
    5382,
    5383,
    5384,
    5349,
    5350,
    5351,
    5352,
    0,
    0,
    0,
    0,
    0,
    0,
    0,
    0,
    0,
    0,
    0,
    0,
    0,
    0,
    0,
    0,
    0,
    6045,
    0,
    0,
    0,
    0,
    0,
    0,
    0,
    0,
    0,
    6050,
    0,
    0,
    0,
    0,
    0,
    0,
    6049,
    0,
    0,
    0,
    0,
    0,
    5397,
    5398,
    5399,
    5400,
    0,
    0,
    0,
    5385,
    5386,
    5387,
    5388,
    5397,
    5398,
    5399,
    5400,
    0,
    0,
    0,
    0,
    0,
    0,
    0,
    0,
    0,
    5365,
    5366,
    5367,
    5368,
    5401,
    5402,
    5403,
    5404,
    5397,
    5398,
    5399,
    5400,
    5365,
    5366,
    5367,
    5368,
    0,
    0,
    0,
    0,
    0,
    0,
    0,
    0,
    0,
    6050,
    0,
    0,
    6045,
    0,
    0,
    0,
    0,
    0,
    0,
    0,
    6046,
    0,
    0,
    0,
    0,
    0,
    0,
    0,
    0,
    0,
    0,
    0,
    0,
    0,
    0,
    0,
    0,
    0,
    0,
    0,
    5413,
    5414,
    5415,
    5416,
    0,
    0,
    6050,
    5401,
    5402,
    5403,
    5404,
    5413,
    5414,
    5415,
    5416,
    0,
    0,
    0,
    0,
    0,
    0,
    0,
    0,
    0,
    5381,
    5382,
    5383,
    5384,
    5417,
    5418,
    5419,
    5420,
    5413,
    5414,
    5415,
    5416,
    5381,
    5382,
    5383,
    5384,
    0,
    0,
    6045,
    0,
    0,
    6049,
    0,
    0,
    0,
    0,
    0,
    0,
    0,
    0,
    0,
    0,
    0,
    0,
    0,
    0,
    0,
    0,
    0,
    0,
    0,
    0,
    6045,
    0,
    0,
    6050,
    0,
    6045,
    0,
    6046,
    0,
    0,
    5349,
    5350,
    5351,
    5352,
    0,
    0,
    0,
    0,
    0,
    0,
    0,
    5417,
    5418,
    5419,
    5420,
    0,
    0,
    0,
    0,
    0,
    0,
    0,
    0,
    6046,
    0,
    6046,
    0,
    0,
    5397,
    5398,
    5399,
    5400,
    0,
    5349,
    5350,
    5351,
    5352,
    0,
    0,
    0,
    5397,
    5398,
    5399,
    5400,
    0,
    0,
    0,
    0,
    0,
    0,
    0,
    0,
    0,
    0,
    0,
    0,
    0,
    0,
    0,
    0,
    0,
    0,
    0,
    0,
    0,
    0,
    0,
    0,
    0,
    0,
    0,
    0,
    0,
    0,
    0,
    0,
    0,
    0,
    0,
    0,
    5365,
    5366,
    5367,
    5368,
    0,
    0,
    0,
    5349,
    5350,
    5351,
    5352,
    6045,
    0,
    0,
    5349,
    5350,
    5351,
    5352,
    0,
    0,
    0,
    0,
    0,
    0,
    0,
    0,
    0,
    0,
    5413,
    5414,
    5415,
    5416,
    0,
    5365,
    5366,
    5367,
    5368,
    0,
    0,
    0,
    5413,
    5414,
    5415,
    5416,
    0,
    6050,
    0,
    6046,
    0,
    0,
    0,
    0,
    6046,
    0,
    0,
    0,
    0,
    0,
    0,
    0,
    0,
    0,
    0,
    0,
    0,
    0,
    0,
    0,
    6049,
    0,
    0,
    0,
    0,
    6050,
    0,
    0,
    0,
    0,
    0,
    0,
    5381,
    5382,
    5383,
    5384,
    0,
    0,
    0,
    5365,
    5366,
    5367,
    5368,
    0,
    0,
    0,
    5365,
    5366,
    5367,
    5368,
    0,
    0,
    0,
    0,
    0,
    0,
    0,
    0,
    0,
    0,
    0,
    0,
    0,
    0,
    0,
    5381,
    5382,
    5383,
    5384,
    0,
    0,
    0,
    0,
    0,
    0,
    0,
    0,
    0,
    0,
    0,
    0,
    0,
    0,
    0,
    0,
    0,
    0,
    0,
    0,
    0,
    0,
    0,
    0,
    0,
    0,
    0,
    0,
    0,
    0,
    0,
    0,
    0,
    6050,
    0,
    0,
    0,
    0,
    6045,
    0,
    0,
    0,
    0,
    5397,
    5398,
    5399,
    5400,
    0,
    0,
    0,
    5381,
    5382,
    5383,
    5384,
    0,
    0,
    0,
    5381,
    5382,
    5383,
    5384,
    0,
    0,
    0,
    0,
    0,
    0,
    0,
    0,
    6046,
    0,
    0,
    0,
    0,
    0,
    0,
    5397,
    5398,
    5399,
    5400,
    0,
    0,
    0,
    0,
    0,
    0,
    0,
    0,
    0,
    0,
    0,
    0,
    0,
    0,
    0,
    0,
    0,
    0,
    0,
    0,
    0,
    0,
    0,
    0,
    0,
    0,
    0,
    0,
    0,
    0,
    0,
    0,
    0,
    0,
    0,
    0,
    0,
    0,
    0,
    0,
    0,
    0,
    0,
    5413,
    5414,
    5415,
    5416,
    0,
    0,
    0,
    5397,
    5398,
    5399,
    5400,
    0,
    0,
    0,
    5397,
    5398,
    5399,
    5400,
    0,
    0,
    0,
    0,
    0,
    6049,
    0,
    0,
    0,
    0,
    0,
    0,
    0,
    6046,
    0,
    5413,
    5414,
    5415,
    5416,
    0,
    0,
    0,
    0,
    0,
    0,
    0,
    0,
    0,
    0,
    0,
    0,
    0,
    0,
    0,
    0,
    0,
    0,
    0,
    0,
    0,
    0,
    0,
    0,
    0,
    0,
    0,
    0,
    0,
    0,
    0,
    0,
    0,
    0,
    0,
    0,
    0,
    0,
    0,
    0,
    0,
    0,
    0,
    0,
    0,
    0,
    0,
    0,
    0,
    0,
    5413,
    5414,
    5415,
    5416,
    0,
    6049,
    0,
    5413,
    5414,
    5415,
    5416,
    0,
    0,
    0,
    0,
    0,
    0,
    0,
    0,
    0,
    0,
    0,
    6045,
    0,
    0,
    0,
    0,
    0,
    0,
    0,
    0,
    0,
    0,
    0,
    0,
    0,
    0,
    0,
    0,
    0,
    0,
    0,
    0,
    0,
    0,
    0,
    0,
    0,
    0,
    0,
    0,
    0,
    0,
    0,
    0,
    0,
    0,
    0,
    0,
    0,
    0,
    0,
    0,
    0,
    0,
    0,
    0,
    0,
    0,
    0,
    0,
    0,
    0,
    0,
    0,
    0,
    0,
    0,
    0,
    0,
    0,
    5349,
    5350,
    5351,
    5352,
    0,
    0,
    0,
    0,
    0,
    0,
    0,
    0,
    0,
    0,
    0,
    0,
    0,
    0,
    0,
    6049,
    0,
    0,
    0,
    6050,
    0,
    0,
    0,
    0,
    0,
    0,
    6050,
    0,
    0,
    0,
    0,
    0,
    0,
    0,
    0,
    0,
    0,
    0,
    0,
    0,
    0,
    0,
    0,
    0,
    0,
    0,
    0,
    0,
    0,
    0,
    0,
    0,
    0,
    0,
    0,
    0,
    0,
    0,
    0,
    0,
    0,
    0,
    0,
    0,
    0,
    0,
    0,
    0,
    0,
    0,
    6045,
    0,
    0,
    6045,
    0,
    0,
    5365,
    5366,
    5367,
    5368,
    0,
    0,
    0,
    0,
    0,
    0,
    0,
    0,
    0,
    0,
    0,
    0,
    6050,
    0,
    0,
    0,
    0,
    0,
    0,
    0,
    0,
    0,
    0,
    6049,
    0,
    0,
    0,
    0,
    0,
    0,
    0,
    0,
    0,
    0,
    0,
    0,
    0,
    0,
    0,
    0,
    0,
    0,
    0,
    0,
    0,
    0,
    0,
    0,
    0,
    0,
    0,
    0,
    0,
    0,
    0,
    0,
    0,
    0,
    0,
    0,
    0,
    0,
    0,
    0,
    0,
    0,
    0,
    0,
    0,
    0,
    0,
    0,
    0,
    0,
    0,
    0,
    5381,
    5382,
    5383,
    5384,
    0,
    0,
    0,
    6050,
    0,
    0,
    6045,
    0,
    0,
    0,
    0,
    0,
    0,
    0,
    6050,
    0,
    0,
    6049,
    0,
    0,
    0,
    0,
    0,
    0,
    0,
    0,
    0,
    0,
    0,
    0,
    0,
    0,
    0,
    0,
    0,
    0,
    0,
    0,
    0,
    0,
    0,
    6046,
    0,
    0,
    0,
    0,
    0,
    0,
    0,
    0,
    0,
    0,
    0,
    0,
    0,
    0,
    0,
    0,
    0,
    0,
    6045,
    0,
    6049,
    0,
    0,
    0,
    0,
    0,
    0,
    0,
    0,
    0,
    0,
    0,
    0,
    0,
    5397,
    5398,
    5399,
    5400,
    0,
    0,
    0,
    0,
    0,
    0,
    0,
    0,
    0,
    0,
    0,
    0,
    0,
    0,
    0,
    0,
    0,
    0,
    0,
    0,
    0,
    0,
    0,
    0,
    0,
    0,
    0,
    0,
    0,
    0,
    0,
    0,
    0,
    0,
    0,
    0,
    0,
    0,
    0,
    0,
    0,
    0,
    0,
    0,
    0,
    0,
    0,
    0,
    0,
    0,
    0,
    0,
    0,
    0,
    0,
    0,
    0,
    6049,
    0,
    0,
    0,
    0,
    0,
    0,
    0,
    0,
    0,
    0,
    0,
    5481,
    5466,
    56,
    6009,
    0,
    0,
    0,
    5413,
    5414,
    5415,
    5416,
    0,
    6049,
    0,
    0,
    0,
    0,
    0,
    0,
    0,
    0,
    0,
    0,
    0,
    0,
    0,
    0,
    0,
    6049,
    0,
    0,
    0,
    0,
    0,
    0,
    0,
    0,
    0,
    0,
    0,
    0,
    0,
    0,
    0,
    0,
    0,
    0,
    0,
    0,
    0,
    0,
    0,
    6046,
    0,
    0,
    0,
    0,
    0,
    0,
    0,
    0,
    0,
    0,
    0,
    0,
    0,
    0,
    0,
    0,
    0,
    0,
    6046,
    0,
    0,
    0,
    0,
    0,
    0,
    0,
    0,
    5497,
    79,
    79,
    79,
    0,
    0,
    0,
    0,
    0,
    0,
    0,
    0,
    0,
    0,
    0,
    0,
    0,
    0,
    0,
    0,
    0,
    0,
    0,
    0,
    0,
    0,
    0,
    0,
    0,
    0,
    0,
    0,
    6049,
    0,
    0,
    0,
    0,
    0,
    0,
    0,
    0,
    0,
    0,
    0,
    0,
    0,
    0,
    0,
    0,
    0,
    0,
    0,
    0,
    0,
    0,
    0,
    0,
    0,
    0,
    0,
    0,
    0,
    0,
    0,
    0,
    0,
    0,
    0,
    0,
    0,
    0,
    0,
    0,
    0,
    0,
    0,
    0,
    0,
    0,
    0,
    5516,
    5517,
    6049,
    6050,
    0,
    0,
    0,
    0,
    0,
    0,
    0,
    0,
    0,
    0,
    0,
    0,
    0,
    0,
    0,
    0,
    0,
    0,
    0,
    0,
    0,
    0,
    0,
    0,
    0,
    6046,
    0,
    0,
    0,
    0,
    0,
    0,
    0,
    0,
    0,
    0,
    0,
    0,
    0,
    0,
    0,
    0,
    0,
    0,
    0,
    0,
    0,
    0,
    0,
    0,
    0,
    0,
    0,
    0,
    0,
    0,
    0,
    0,
    0,
    0,
    0,
    0,
    0,
    0,
    0,
    6045,
    0,
    0,
    0,
    0,
    0,
    0,
    0,
    0,
    0,
    0,
    5532,
    5533,
    388,
    558,
    0,
    0,
    0,
    0,
    0,
    0,
    0,
    0,
    0,
    0,
    6045,
    0,
    0,
    0,
    0,
    0,
    0,
    0,
    0,
    0,
    0,
    6046,
    0,
    0,
    0,
    0,
    0,
    0,
    0,
    0,
    0,
    0,
    0,
    0,
    0,
    0,
    0,
    0,
    0,
    0,
    0,
    0,
    0,
    6049,
    0,
    0,
    0,
    0,
    0,
    0,
    0,
    0,
    0,
    0,
    0,
    0,
    0,
    0,
    0,
    0,
    0,
    6050,
    0,
    0,
    0,
    0,
    0,
    0,
    0,
    6049,
    0,
    0,
    0,
    0,
    0,
    0,
    0,
    0,
    0,
    0,
    0,
    0,
    0,
    0,
    0,
    0,
    0,
    0,
    0,
    0,
    0,
    0,
    0,
    0,
    0,
    0,
    0,
    0,
    0,
    0,
    0,
    0,
    0,
    6045,
    0,
    6045,
    0,
    0,
    0,
    0,
    0,
    0,
    0,
    0,
    0,
    0,
    0,
    0,
    0,
    0,
    0,
    0,
    0,
    0,
    0,
    6045,
    0,
    0,
    0,
    6045,
    0,
    6045,
    0,
    0,
    0,
    0,
    0,
    0,
    0,
    0,
    0,
    0,
    0,
    0,
    0,
    6049,
    0,
    0,
    0,
    0,
    0,
    6049,
    0,
    0,
    0,
    0,
    0,
    0,
    0,
    0,
    0,
    0,
    0,
    0,
    0,
    0,
    0,
    0,
    5349,
    5350,
    5351,
    5352,
    0,
    6049,
    0,
    0,
    0,
    0,
    0,
    0,
    5349,
    5350,
    5351,
    5352,
    0,
    5349,
    5350,
    5351,
    5352,
    0,
    0,
    0,
    0,
    0,
    0,
    0,
    0,
    0,
    0,
    0,
    6049,
    0,
    0,
    0,
    0,
    0,
    0,
    0,
    0,
    0,
    0,
    0,
    0,
    6045,
    0,
    0,
    0,
    0,
    0,
    0,
    0,
    0,
    0,
    0,
    0,
    5499,
    5500,
    0,
    6045,
    0,
    0,
    0,
    0,
    0,
    0,
    0,
    0,
    0,
    0,
    0,
    0,
    0,
    0,
    0,
    0,
    0,
    0,
    0,
    5365,
    5366,
    5367,
    5368,
    0,
    0,
    0,
    0,
    0,
    0,
    0,
    0,
    5365,
    5366,
    5367,
    5368,
    0,
    5365,
    5366,
    5367,
    5368,
    0,
    0,
    0,
    0,
    6046,
    0,
    0,
    0,
    0,
    0,
    0,
    0,
    0,
    6045,
    0,
    0,
    0,
    0,
    0,
    0,
    0,
    0,
    0,
    0,
    0,
    0,
    0,
    0,
    0,
    0,
    0,
    0,
    0,
    0,
    0,
    0,
    787,
    940,
    788,
    0,
    0,
    0,
    0,
    0,
    0,
    6046,
    0,
    0,
    0,
    0,
    6045,
    0,
    0,
    0,
    0,
    0,
    0,
    0,
    0,
    5381,
    5382,
    5383,
    5384,
    0,
    0,
    0,
    0,
    0,
    0,
    0,
    0,
    5381,
    5382,
    5383,
    5384,
    0,
    5381,
    5382,
    5383,
    5384,
    0,
    5349,
    5350,
    5351,
    5352,
    0,
    0,
    0,
    0,
    0,
    6049,
    0,
    0,
    0,
    0,
    0,
    0,
    0,
    0,
    0,
    0,
    5349,
    5350,
    5351,
    5352,
    6050,
    0,
    0,
    0,
    0,
    0,
    0,
    0,
    0,
    6046,
    789,
    864,
    6049,
    862,
    788,
    0,
    0,
    0,
    0,
    0,
    0,
    0,
    0,
    6050,
    0,
    0,
    0,
    0,
    0,
    0,
    0,
    0,
    0,
    0,
    5397,
    5398,
    5399,
    5400,
    0,
    0,
    0,
    0,
    0,
    0,
    0,
    6050,
    5397,
    5398,
    5399,
    5400,
    0,
    5397,
    5398,
    5399,
    5400,
    0,
    5365,
    5366,
    5367,
    5368,
    0,
    5349,
    5350,
    5351,
    5352,
    0,
    0,
    0,
    0,
    0,
    6045,
    0,
    0,
    0,
    0,
    0,
    5365,
    5366,
    5367,
    5368,
    0,
    0,
    0,
    0,
    0,
    0,
    0,
    0,
    0,
    0,
    825,
    0,
    0,
    0,
    823,
    0,
    0,
    0,
    6049,
    0,
    0,
    0,
    0,
    0,
    0,
    0,
    0,
    0,
    0,
    0,
    0,
    0,
    0,
    0,
    5413,
    5414,
    5415,
    5416,
    0,
    0,
    0,
    0,
    0,
    0,
    0,
    0,
    5413,
    5414,
    5415,
    5416,
    0,
    5413,
    5414,
    5415,
    5416,
    0,
    5381,
    5382,
    5383,
    5384,
    0,
    5365,
    5366,
    5367,
    5368,
    0,
    0,
    0,
    0,
    0,
    0,
    0,
    6050,
    0,
    0,
    0,
    5381,
    5382,
    5383,
    5384,
    0,
    0,
    0,
    0,
    0,
    0,
    0,
    0,
    0,
    0,
    826,
    786,
    5846,
    784,
    827,
    0,
    0,
    0,
    0,
    0,
    0,
    0,
    0,
    0,
    0,
    0,
    0,
    0,
    0,
    0,
    0,
    0,
    0,
    0,
    0,
    0,
    5349,
    5350,
    5351,
    5352,
    0,
    0,
    0,
    0,
    0,
    0,
    0,
    0,
    5349,
    5350,
    5351,
    5352,
    5353,
    5354,
    5355,
    5356,
    5397,
    5398,
    5399,
    5400,
    0,
    5381,
    5382,
    5383,
    5384,
    6049,
    0,
    0,
    5349,
    5350,
    5351,
    5352,
    0,
    0,
    0,
    0,
    5397,
    5398,
    5399,
    5400,
    6049,
    0,
    0,
    0,
    0,
    6049,
    0,
    0,
    0,
    0,
    5860,
    826,
    902,
    827,
    6020,
    0,
    0,
    0,
    0,
    0,
    0,
    0,
    6050,
    0,
    6050,
    0,
    0,
    0,
    0,
    0,
    6045,
    0,
    0,
    0,
    6050,
    0,
    5365,
    5366,
    5367,
    5368,
    0,
    0,
    0,
    0,
    0,
    0,
    0,
    6045,
    5365,
    5366,
    5367,
    5368,
    5369,
    5370,
    5371,
    5372,
    5413,
    5414,
    5415,
    5416,
    0,
    5397,
    5398,
    5399,
    5400,
    0,
    0,
    0,
    5365,
    5366,
    5367,
    5368,
    0,
    6050,
    0,
    6046,
    5413,
    5414,
    5415,
    5416,
    0,
    0,
    6050,
    0,
    5353,
    5354,
    5355,
    5356,
    0,
    0,
    5876,
    5877,
    5878,
    5564,
    6046,
    0,
    0,
    0,
    0,
    0,
    0,
    0,
    0,
    0,
    0,
    0,
    5349,
    5350,
    5351,
    5352,
    5349,
    5350,
    5351,
    5352,
    0,
    0,
    5381,
    5382,
    5383,
    5384,
    0,
    0,
    0,
    0,
    0,
    0,
    0,
    0,
    5381,
    5382,
    5383,
    5384,
    5385,
    5386,
    5387,
    5388,
    0,
    5353,
    5354,
    5355,
    5356,
    5413,
    5414,
    5415,
    5416,
    0,
    0,
    0,
    5381,
    5382,
    5383,
    5384,
    0,
    0,
    5353,
    5354,
    5355,
    5356,
    0,
    5353,
    5354,
    5355,
    5356,
    0,
    5369,
    5370,
    5371,
    5372,
    0,
    5753,
    5754,
    5520,
    0,
    5580,
    5581,
    0,
    0,
    0,
    0,
    0,
    0,
    0,
    0,
    0,
    0,
    0,
    5365,
    5366,
    5367,
    5368,
    5365,
    5366,
    5367,
    5368,
    0,
    0,
    5397,
    5398,
    5399,
    5400,
    0,
    0,
    0,
    0,
    0,
    6046,
    0,
    0,
    5397,
    5398,
    5399,
    5400,
    5401,
    5402,
    5403,
    5404,
    6049,
    5369,
    5370,
    5371,
    5372,
    0,
    0,
    0,
    0,
    0,
    0,
    0,
    5397,
    5398,
    5399,
    5400,
    0,
    0,
    5369,
    5370,
    5371,
    5372,
    0,
    5369,
    5370,
    5371,
    5372,
    0,
    5385,
    5386,
    5387,
    5388,
    0,
    0,
    0,
    0,
    0,
    0,
    0,
    0,
    0,
    0,
    0,
    0,
    0,
    0,
    0,
    0,
    0,
    0,
    5381,
    5382,
    5383,
    5384,
    5381,
    5382,
    5383,
    5384,
    0,
    6045,
    5413,
    5414,
    5415,
    5416,
    0,
    0,
    0,
    0,
    0,
    0,
    0,
    0,
    5413,
    5414,
    5415,
    5416,
    5417,
    5418,
    5419,
    5420,
    0,
    5385,
    5386,
    5387,
    5388,
    0,
    0,
    6050,
    0,
    6045,
    0,
    0,
    5413,
    5414,
    5415,
    5416,
    0,
    6050,
    5385,
    5386,
    5387,
    5388,
    0,
    5385,
    5386,
    5387,
    5388,
    0,
    5401,
    5402,
    5403,
    5404,
    0,
    0,
    0,
    0,
    0,
    0,
    0,
    0,
    0,
    0,
    0,
    0,
    0,
    0,
    0,
    0,
    6049,
    0,
    5397,
    5398,
    5399,
    5400,
    5397,
    5398,
    5399,
    5400,
    0,
    0,
    0,
    0,
    0,
    0,
    0,
    0,
    0,
    0,
    0,
    6050,
    0,
    0,
    0,
    0,
    6045,
    0,
    0,
    0,
    6050,
    0,
    0,
    5401,
    5402,
    5403,
    5404,
    0,
    0,
    0,
    0,
    0,
    0,
    0,
    0,
    0,
    0,
    0,
    0,
    0,
    5401,
    5402,
    5403,
    5404,
    0,
    5401,
    5402,
    5403,
    5404,
    0,
    5417,
    5418,
    5419,
    5420,
    0,
    0,
    0,
    0,
    0,
    0,
    0,
    0,
    0,
    0,
    6045,
    0,
    0,
    0,
    6049,
    0,
    0,
    0,
    5413,
    5414,
    5415,
    5416,
    5413,
    5414,
    5415,
    5416,
    0,
    0,
    0,
    0,
    0,
    0,
    0,
    0,
    0,
    0,
    0,
    0,
    0,
    0,
    0,
    0,
    0,
    0,
    0,
    0,
    0,
    0,
    0,
    5417,
    5418,
    5419,
    5420,
    0,
    6049,
    0,
    0,
    0,
    0,
    0,
    0,
    6046,
    0,
    0,
    0,
    0,
    5417,
    5418,
    5419,
    5420,
    0,
    5417,
    5418,
    5419,
    5420,
    6045,
    0,
    0,
    0,
    0,
    0,
    0,
    0,
    0,
    0,
    0,
    0,
    0,
    0,
    0,
    0,
    0,
    0,
    0,
    0,
    0,
    0,
    6050,
    0,
    0,
    0,
    6049,
    0,
    0,
    0,
    0,
    0,
    0,
    6049,
    0,
    0,
    0,
    0,
    0,
    0,
    0,
    0,
    0,
    0,
    0,
    0,
    0,
    0,
    0,
    0,
    0,
    0,
    0,
    0,
    0,
    0,
    0,
    0,
    0,
    0,
    0,
    0,
    0,
    0,
    0,
    0,
    0,
    0,
    0,
    0,
    0,
    0,
    0,
    0,
    0,
    0,
    0,
    0,
    0,
    0,
    0,
    0,
    0,
    0,
    0,
    0,
    0,
    0,
    0,
    0,
    0,
    0,
    0,
    0,
    0,
    0,
    0,
    0,
    0,
    0,
    0,
    0,
    0,
    0,
    0,
    0,
    0,
    0,
    0,
    0,
    0,
    0,
    0,
    0,
    0,
    0,
    0,
    0,
    0,
    558,
    559,
    558,
    558,
    558,
    558,
    558,
    559,
    559,
    560,
    560,
    560,
    558,
    559,
    559,
    560,
    559,
    558,
    560,
    559,
    559,
    560,
    559,
    558,
    559,
    560,
    559,
    558,
    560,
    560,
    559,
    558,
    559,
    558,
    558,
    559,
    559,
    558,
    559,
    558,
    559,
    558,
    559,
    558,
    559,
    558,
    558,
    560,
    559,
    560,
    558,
    558,
    558,
    559,
    560,
    559,
    558,
    559,
    558,
    560,
    560,
    558,
    559,
    559,
    558,
    560,
    558,
    558,
    559,
    559,
    559,
    560,
    560,
    560,
    560,
    560,
    559,
    560,
    560,
    560,
    611,
    612,
    611,
    611,
    611,
    611,
    611,
    612,
    612,
    613,
    613,
    613,
    611,
    612,
    612,
    613,
    612,
    611,
    613,
    612,
    612,
    613,
    612,
    611,
    612,
    613,
    612,
    611,
    613,
    613,
    612,
    611,
    612,
    611,
    611,
    612,
    612,
    611,
    612,
    611,
    612,
    611,
    612,
    611,
    612,
    611,
    611,
    613,
    612,
    613,
    611,
    611,
    611,
    612,
    613,
    612,
    611,
    612,
    611,
    613,
    613,
    611,
    612,
    612,
    611,
    613,
    611,
    611,
    612,
    612,
    612,
    613,
    613,
    613,
    613,
    613,
    612,
    613,
    613,
    613
   ]
  },
  {
   "id": 4,
   "name": "Deco",
   "type": "tilelayer",
   "visible": true,
   "opacity": 1,
   "x": 0,
   "y": 0,
   "width": 80,
   "height": 50,
   "data": [
    0,
    0,
    0,
    0,
    0,
    0,
    0,
    0,
    0,
    0,
    0,
    0,
    0,
    0,
    0,
    0,
    0,
    0,
    0,
    0,
    0,
    0,
    0,
    0,
    0,
    0,
    0,
    0,
    0,
    0,
    0,
    0,
    0,
    0,
    0,
    0,
    0,
    0,
    0,
    0,
    0,
    0,
    0,
    0,
    0,
    0,
    0,
    0,
    0,
    0,
    0,
    0,
    0,
    0,
    0,
    0,
    0,
    0,
    0,
    0,
    0,
    0,
    0,
    0,
    0,
    0,
    0,
    0,
    0,
    0,
    0,
    0,
    0,
    0,
    0,
    0,
    0,
    0,
    0,
    0,
    0,
    0,
    0,
    0,
    0,
    0,
    0,
    0,
    0,
    0,
    0,
    0,
    0,
    0,
    0,
    0,
    0,
    0,
    0,
    0,
    0,
    0,
    0,
    0,
    0,
    0,
    0,
    0,
    0,
    0,
    0,
    0,
    0,
    0,
    0,
    0,
    0,
    0,
    0,
    0,
    0,
    0,
    0,
    0,
    0,
    0,
    0,
    0,
    0,
    0,
    0,
    0,
    0,
    0,
    0,
    0,
    0,
    0,
    0,
    0,
    0,
    0,
    0,
    0,
    0,
    0,
    0,
    0,
    0,
    0,
    0,
    0,
    0,
    0,
    0,
    0,
    0,
    0,
    0,
    0,
    0,
    0,
    0,
    0,
    0,
    0,
    0,
    0,
    0,
    0,
    0,
    0,
    0,
    0,
    0,
    0,
    0,
    0,
    0,
    0,
    0,
    0,
    0,
    0,
    0,
    0,
    0,
    0,
    0,
    0,
    0,
    0,
    0,
    0,
    0,
    0,
    0,
    0,
    0,
    0,
    0,
    0,
    0,
    0,
    0,
    0,
    0,
    0,
    0,
    0,
    0,
    0,
    0,
    0,
    0,
    0,
    0,
    0,
    0,
    0,
    0,
    0,
    0,
    0,
    0,
    0,
    0,
    0,
    0,
    0,
    0,
    0,
    0,
    0,
    0,
    0,
    0,
    0,
    0,
    0,
    0,
    0,
    0,
    0,
    0,
    0,
    0,
    0,
    0,
    0,
    0,
    0,
    0,
    0,
    0,
    0,
    0,
    0,
    0,
    0,
    0,
    0,
    0,
    0,
    0,
    0,
    0,
    0,
    0,
    0,
    0,
    0,
    0,
    0,
    0,
    0,
    0,
    0,
    0,
    0,
    0,
    0,
    0,
    0,
    0,
    0,
    0,
    0,
    0,
    0,
    0,
    0,
    0,
    0,
    0,
    0,
    0,
    0,
    0,
    0,
    0,
    0,
    0,
    0,
    0,
    0,
    0,
    0,
    0,
    0,
    0,
    0,
    0,
    0,
    0,
    0,
    0,
    0,
    0,
    0,
    0,
    0,
    0,
    0,
    0,
    0,
    0,
    0,
    0,
    0,
    0,
    0,
    0,
    0,
    0,
    0,
    0,
    0,
    0,
    0,
    0,
    0,
    0,
    0,
    0,
    0,
    0,
    0,
    0,
    0,
    0,
    0,
    0,
    0,
    0,
    0,
    0,
    0,
    0,
    0,
    0,
    0,
    0,
    0,
    0,
    0,
    0,
    0,
    0,
    0,
    0,
    0,
    0,
    0,
    0,
    0,
    0,
    0,
    0,
    0,
    0,
    0,
    0,
    0,
    0,
    0,
    0,
    0,
    0,
    0,
    0,
    0,
    0,
    0,
    0,
    0,
    0,
    0,
    0,
    0,
    0,
    0,
    0,
    0,
    0,
    0,
    0,
    0,
    0,
    0,
    0,
    0,
    0,
    0,
    0,
    0,
    0,
    0,
    0,
    0,
    0,
    0,
    0,
    0,
    0,
    0,
    0,
    0,
    0,
    0,
    0,
    0,
    0,
    0,
    0,
    0,
    0,
    0,
    0,
    0,
    0,
    0,
    0,
    0,
    0,
    0,
    0,
    0,
    0,
    0,
    0,
    0,
    0,
    0,
    0,
    0,
    0,
    0,
    0,
    0,
    0,
    0,
    0,
    0,
    0,
    0,
    0,
    0,
    0,
    0,
    0,
    0,
    0,
    0,
    0,
    0,
    0,
    0,
    0,
    0,
    0,
    0,
    0,
    0,
    0,
    0,
    0,
    0,
    0,
    0,
    0,
    0,
    0,
    0,
    0,
    0,
    0,
    0,
    0,
    0,
    0,
    0,
    0,
    0,
    0,
    0,
    0,
    0,
    0,
    0,
    0,
    0,
    0,
    0,
    0,
    0,
    0,
    0,
    0,
    0,
    0,
    0,
    0,
    0,
    0,
    0,
    0,
    0,
    0,
    0,
    0,
    0,
    0,
    0,
    0,
    0,
    0,
    0,
    0,
    0,
    0,
    0,
    0,
    0,
    0,
    0,
    0,
    0,
    0,
    0,
    0,
    0,
    0,
    0,
    0,
    0,
    0,
    0,
    0,
    0,
    0,
    0,
    0,
    0,
    0,
    0,
    0,
    0,
    0,
    0,
    0,
    0,
    0,
    0,
    0,
    0,
    0,
    0,
    0,
    0,
    0,
    0,
    0,
    0,
    0,
    0,
    0,
    0,
    0,
    0,
    0,
    0,
    0,
    0,
    0,
    0,
    0,
    0,
    0,
    0,
    0,
    0,
    0,
    0,
    0,
    0,
    0,
    0,
    0,
    0,
    0,
    0,
    0,
    0,
    0,
    0,
    0,
    0,
    0,
    0,
    0,
    0,
    0,
    0,
    0,
    0,
    0,
    0,
    0,
    0,
    0,
    0,
    0,
    0,
    0,
    0,
    0,
    0,
    0,
    0,
    0,
    0,
    0,
    0,
    0,
    0,
    0,
    0,
    0,
    0,
    0,
    0,
    0,
    0,
    0,
    0,
    0,
    0,
    0,
    0,
    0,
    0,
    0,
    0,
    0,
    0,
    0,
    0,
    0,
    0,
    0,
    0,
    0,
    0,
    0,
    0,
    0,
    0,
    0,
    0,
    0,
    0,
    0,
    0,
    0,
    0,
    0,
    0,
    0,
    0,
    0,
    0,
    0,
    0,
    0,
    0,
    0,
    0,
    0,
    0,
    0,
    0,
    0,
    0,
    0,
    0,
    0,
    0,
    0,
    0,
    0,
    0,
    0,
    0,
    0,
    0,
    0,
    0,
    0,
    0,
    0,
    0,
    0,
    0,
    0,
    0,
    0,
    0,
    0,
    0,
    0,
    0,
    0,
    0,
    0,
    0,
    0,
    0,
    0,
    0,
    0,
    0,
    0,
    0,
    0,
    0,
    0,
    0,
    0,
    0,
    0,
    0,
    0,
    0,
    0,
    0,
    0,
    0,
    0,
    0,
    0,
    0,
    0,
    0,
    0,
    0,
    0,
    0,
    0,
    0,
    0,
    0,
    0,
    0,
    0,
    0,
    0,
    0,
    0,
    0,
    0,
    0,
    0,
    0,
    0,
    0,
    0,
    0,
    0,
    0,
    0,
    0,
    0,
    0,
    0,
    0,
    0,
    0,
    0,
    0,
    0,
    0,
    0,
    0,
    0,
    0,
    0,
    0,
    0,
    0,
    0,
    0,
    0,
    0,
    0,
    0,
    0,
    0,
    0,
    0,
    0,
    0,
    0,
    0,
    0,
    0,
    0,
    0,
    0,
    0,
    0,
    0,
    0,
    0,
    0,
    0,
    0,
    0,
    0,
    0,
    0,
    0,
    0,
    0,
    0,
    0,
    0,
    0,
    0,
    0,
    0,
    0,
    0,
    0,
    0,
    0,
    0,
    0,
    0,
    0,
    0,
    0,
    0,
    0,
    0,
    0,
    0,
    0,
    0,
    0,
    0,
    0,
    0,
    0,
    0,
    0,
    0,
    0,
    0,
    0,
    0,
    0,
    0,
    0,
    0,
    0,
    0,
    0,
    0,
    0,
    0,
    0,
    0,
    0,
    0,
    0,
    0,
    0,
    0,
    0,
    0,
    0,
    0,
    0,
    0,
    0,
    0,
    0,
    0,
    0,
    0,
    0,
    0,
    0,
    0,
    0,
    0,
    0,
    0,
    0,
    0,
    0,
    0,
    0,
    0,
    0,
    0,
    0,
    0,
    0,
    0,
    0,
    0,
    0,
    0,
    0,
    0,
    0,
    0,
    0,
    0,
    0,
    0,
    0,
    0,
    0,
    0,
    0,
    0,
    0,
    0,
    0,
    0,
    0,
    0,
    0,
    0,
    0,
    0,
    0,
    0,
    0,
    0,
    0,
    0,
    0,
    0,
    0,
    0,
    0,
    0,
    0,
    0,
    0,
    0,
    0,
    0,
    0,
    0,
    0,
    0,
    0,
    0,
    0,
    0,
    0,
    0,
    0,
    0,
    0,
    0,
    0,
    0,
    0,
    0,
    0,
    0,
    0,
    0,
    0,
    0,
    0,
    0,
    0,
    0,
    0,
    0,
    0,
    0,
    0,
    0,
    0,
    0,
    0,
    0,
    0,
    0,
    0,
    0,
    0,
    0,
    0,
    0,
    0,
    0,
    0,
    0,
    0,
    0,
    0,
    0,
    0,
    0,
    0,
    0,
    0,
    0,
    0,
    0,
    0,
    0,
    0,
    0,
    0,
    0,
    0,
    0,
    0,
    0,
    0,
    0,
    0,
    0,
    0,
    0,
    0,
    0,
    0,
    0,
    0,
    0,
    0,
    0,
    0,
    0,
    0,
    0,
    0,
    0,
    0,
    0,
    0,
    0,
    0,
    0,
    0,
    0,
    0,
    0,
    0,
    0,
    0,
    0,
    0,
    0,
    0,
    0,
    0,
    0,
    0,
    0,
    0,
    0,
    0,
    0,
    0,
    0,
    0,
    0,
    0,
    0,
    0,
    0,
    0,
    0,
    0,
    0,
    0,
    0,
    0,
    0,
    0,
    0,
    0,
    0,
    0,
    0,
    0,
    0,
    0,
    0,
    0,
    0,
    0,
    0,
    0,
    0,
    0,
    0,
    0,
    0,
    0,
    0,
    0,
    0,
    0,
    0,
    0,
    0,
    0,
    0,
    0,
    0,
    0,
    0,
    0,
    0,
    0,
    0,
    0,
    0,
    0,
    0,
    0,
    0,
    0,
    0,
    0,
    0,
    0,
    0,
    0,
    0,
    0,
    0,
    0,
    0,
    0,
    0,
    0,
    0,
    0,
    0,
    0,
    0,
    0,
    0,
    0,
    0,
    0,
    0,
    0,
    0,
    0,
    0,
    0,
    0,
    0,
    0,
    0,
    0,
    0,
    0,
    0,
    0,
    0,
    0,
    0,
    0,
    0,
    0,
    0,
    0,
    0,
    0,
    0,
    0,
    0,
    0,
    0,
    0,
    0,
    0,
    0,
    0,
    0,
    0,
    0,
    0,
    0,
    0,
    0,
    0,
    0,
    0,
    0,
    0,
    0,
    0,
    0,
    0,
    0,
    0,
    0,
    0,
    0,
    0,
    0,
    0,
    0,
    0,
    0,
    0,
    0,
    0,
    0,
    0,
    0,
    0,
    0,
    0,
    0,
    0,
    0,
    0,
    0,
    0,
    0,
    0,
    0,
    0,
    0,
    0,
    0,
    0,
    0,
    0,
    0,
    0,
    0,
    0,
    0,
    0,
    0,
    0,
    0,
    0,
    0,
    0,
    0,
    0,
    0,
    0,
    0,
    0,
    0,
    0,
    0,
    0,
    0,
    0,
    0,
    0,
    0,
    0,
    0,
    0,
    0,
    0,
    0,
    0,
    0,
    0,
    0,
    0,
    0,
    0,
    0,
    0,
    0,
    0,
    0,
    0,
    0,
    0,
    0,
    0,
    0,
    0,
    0,
    0,
    0,
    0,
    0,
    0,
    0,
    0,
    0,
    0,
    0,
    0,
    0,
    0,
    0,
    0,
    0,
    0,
    0,
    0,
    0,
    0,
    0,
    0,
    0,
    0,
    0,
    0,
    0,
    0,
    0,
    0,
    0,
    0,
    0,
    0,
    0,
    0,
    0,
    0,
    0,
    0,
    0,
    0,
    0,
    0,
    0,
    0,
    0,
    0,
    0,
    0,
    0,
    0,
    0,
    0,
    0,
    0,
    0,
    0,
    0,
    0,
    0,
    0,
    0,
    0,
    0,
    0,
    0,
    0,
    0,
    0,
    0,
    0,
    0,
    0,
    0,
    0,
    0,
    0,
    0,
    0,
    0,
    0,
    0,
    0,
    0,
    0,
    0,
    0,
    0,
    0,
    0,
    0,
    0,
    0,
    0,
    0,
    0,
    0,
    0,
    0,
    0,
    0,
    0,
    0,
    0,
    0,
    0,
    0,
    0,
    0,
    0,
    0,
    0,
    0,
    0,
    0,
    0,
    0,
    0,
    0,
    0,
    0,
    0,
    0,
    0,
    0,
    0,
    0,
    0,
    0,
    0,
    0,
    0,
    0,
    0,
    0,
    0,
    0,
    0,
    0,
    0,
    0,
    0,
    0,
    0,
    0,
    0,
    0,
    0,
    0,
    0,
    0,
    0,
    0,
    0,
    0,
    0,
    0,
    0,
    0,
    0,
    0,
    0,
    0,
    0,
    0,
    0,
    0,
    0,
    0,
    0,
    0,
    0,
    0,
    0,
    0,
    0,
    0,
    0,
    0,
    0,
    0,
    0,
    0,
    0,
    0,
    0,
    0,
    0,
    0,
    0,
    0,
    0,
    0,
    0,
    0,
    0,
    0,
    0,
    0,
    0,
    0,
    0,
    0,
    0,
    0,
    0,
    0,
    0,
    0,
    0,
    0,
    0,
    0,
    0,
    0,
    0,
    0,
    0,
    0,
    0,
    0,
    0,
    0,
    0,
    0,
    0,
    0,
    0,
    0,
    0,
    0,
    0,
    0,
    0,
    0,
    0,
    0,
    0,
    0,
    0,
    0,
    0,
    0,
    0,
    0,
    0,
    0,
    0,
    0,
    0,
    0,
    0,
    0,
    0,
    0,
    0,
    0,
    0,
    0,
    0,
    0,
    0,
    0,
    0,
    0,
    0,
    0,
    0,
    0,
    0,
    0,
    0,
    0,
    0,
    0,
    0,
    0,
    0,
    0,
    0,
    0,
    0,
    0,
    0,
    0,
    0,
    0,
    0,
    0,
    0,
    0,
    0,
    0,
    0,
    0,
    0,
    0,
    0,
    0,
    0,
    0,
    0,
    0,
    0,
    0,
    0,
    0,
    0,
    0,
    0,
    0,
    0,
    0,
    0,
    0,
    0,
    0,
    0,
    0,
    0,
    0,
    0,
    0,
    0,
    0,
    0,
    0,
    0,
    0,
    0,
    0,
    0,
    0,
    0,
    0,
    0,
    0,
    0,
    0,
    0,
    0,
    0,
    0,
    0,
    0,
    0,
    0,
    0,
    0,
    0,
    0,
    0,
    0,
    0,
    0,
    0,
    0,
    0,
    0,
    0,
    0,
    0,
    0,
    0,
    0,
    0,
    0,
    0,
    0,
    0,
    0,
    0,
    0,
    0,
    0,
    0,
    0,
    0,
    0,
    0,
    0,
    0,
    0,
    0,
    0,
    0,
    0,
    0,
    0,
    0,
    0,
    0,
    0,
    0,
    0,
    0,
    0,
    0,
    0,
    0,
    0,
    0,
    0,
    0,
    0,
    0,
    0,
    0,
    0,
    0,
    0,
    0,
    0,
    0,
    0,
    0,
    0,
    0,
    0,
    0,
    0,
    0,
    0,
    0,
    0,
    0,
    0,
    0,
    0,
    0,
    0,
    0,
    0,
    0,
    0,
    0,
    0,
    0,
    0,
    0,
    0,
    0,
    0,
    0,
    0,
    0,
    0,
    0,
    0,
    0,
    0,
    0,
    0,
    0,
    0,
    0,
    0,
    0,
    0,
    0,
    0,
    0,
    0,
    0,
    0,
    0,
    0,
    0,
    0,
    0,
    0,
    0,
    0,
    0,
    0,
    0,
    0,
    0,
    0,
    0,
    0,
    0,
    0,
    0,
    0,
    0,
    0,
    0,
    0,
    0,
    0,
    0,
    0,
    0,
    0,
    0,
    0,
    0,
    0,
    0,
    0,
    0,
    0,
    0,
    0,
    0,
    0,
    0,
    0,
    0,
    0,
    0,
    0,
    0,
    0,
    0,
    0,
    0,
    0,
    0,
    0,
    0,
    0,
    0,
    0,
    0,
    0,
    0,
    0,
    0,
    0,
    0,
    0,
    0,
    0,
    0,
    0,
    0,
    0,
    0,
    0,
    0,
    0,
    0,
    0,
    0,
    0,
    0,
    0,
    0,
    0,
    0,
    0,
    0,
    0,
    0,
    0,
    0,
    0,
    0,
    0,
    0,
    0,
    0,
    0,
    0,
    0,
    0,
    0,
    0,
    0,
    0,
    0,
    0,
    0,
    0,
    0,
    0,
    0,
    0,
    0,
    0,
    0,
    0,
    0,
    0,
    0,
    0,
    0,
    0,
    0,
    0,
    0,
    0,
    0,
    0,
    0,
    0,
    0,
    0,
    0,
    0,
    0,
    0,
    0,
    0,
    0,
    0,
    0,
    0,
    0,
    0,
    0,
    0,
    0,
    0,
    0,
    0,
    0,
    0,
    0,
    0,
    0,
    0,
    0,
    0,
    0,
    0,
    0,
    0,
    0,
    0,
    0,
    0,
    0,
    0,
    0,
    0,
    0,
    0,
    0,
    0,
    0,
    0,
    0,
    0,
    0,
    0,
    0,
    0,
    0,
    0,
    0,
    0,
    0,
    0,
    0,
    0,
    0,
    0,
    0,
    0,
    0,
    0,
    0,
    0,
    0,
    0,
    0,
    0,
    0,
    0,
    0,
    0,
    0,
    0,
    0,
    0,
    0,
    0,
    0,
    0,
    0,
    0,
    0,
    0,
    0,
    0,
    0,
    0,
    0,
    0,
    0,
    0,
    0,
    0,
    0,
    0,
    0,
    0,
    0,
    0,
    0,
    0,
    0,
    0,
    0,
    0,
    0,
    0,
    0,
    0,
    0,
    0,
    0,
    0,
    0,
    0,
    0,
    0,
    0,
    0,
    0,
    0,
    0,
    0,
    0,
    0,
    0,
    0,
    0,
    0,
    0,
    0,
    0,
    0,
    0,
    0,
    0,
    0,
    0,
    0,
    0,
    0,
    0,
    0,
    0,
    0,
    0,
    0,
    0,
    0,
    0,
    0,
    0,
    0,
    0,
    0,
    0,
    0,
    0,
    0,
    0,
    0,
    0,
    0,
    0,
    0,
    0,
    0,
    0,
    0,
    0,
    0,
    0,
    0,
    0,
    0,
    0,
    0,
    0,
    0,
    0,
    0,
    0,
    0,
    0,
    0,
    0,
    0,
    0,
    0,
    0,
    0,
    0,
    0,
    0,
    0,
    0,
    0,
    0,
    0,
    0,
    0,
    0,
    0,
    0,
    0,
    0,
    0,
    0,
    0,
    0,
    0,
    0,
    0,
    0,
    0,
    0,
    0,
    0,
    0,
    0,
    0,
    0,
    0,
    0,
    0,
    0,
    0,
    0,
    0,
    0,
    0,
    0,
    0,
    0,
    0,
    0,
    0,
    0,
    0,
    0,
    0,
    0,
    0,
    0,
    0,
    0,
    0,
    0,
    0,
    0,
    0,
    0,
    0,
    0,
    0,
    0,
    0,
    0,
    0,
    0,
    0,
    0,
    0,
    0,
    0,
    0,
    0,
    0,
    0,
    0,
    0,
    0,
    0,
    0,
    0,
    0,
    0,
    0,
    0,
    0,
    0,
    0,
    0,
    0,
    0,
    0,
    0,
    0,
    0,
    0,
    0,
    0,
    0,
    0,
    0,
    0,
    0,
    0,
    0,
    0,
    0,
    0,
    0,
    0,
    0,
    0,
    0,
    0,
    0,
    0,
    0,
    0,
    0,
    0,
    0,
    0,
    0,
    0,
    0,
    0,
    0,
    0,
    0,
    0,
    0,
    0,
    0,
    0,
    0,
    0,
    0,
    0,
    0,
    0,
    0,
    0,
    0,
    0,
    0,
    0,
    0,
    0,
    0,
    0,
    0,
    0,
    0,
    0,
    0,
    0,
    0,
    0,
    0,
    0,
    0,
    0,
    0,
    0,
    0,
    0,
    0,
    0,
    0,
    0,
    0,
    0,
    0,
    0,
    0,
    0,
    0,
    0,
    0,
    0,
    0,
    0,
    0,
    0,
    0,
    0,
    0,
    0,
    0,
    0,
    0,
    0,
    0,
    0,
    0,
    0,
    0,
    0,
    0,
    0,
    0,
    0,
    0,
    0,
    0,
    0,
    0,
    0,
    0,
    0,
    0,
    0,
    0,
    0,
    0,
    0,
    0,
    0,
    0,
    0,
    0,
    0,
    0,
    0,
    0,
    0,
    0,
    0,
    0,
    0,
    0,
    0,
    0,
    0,
    0,
    0,
    0,
    0,
    0,
    0,
    0,
    0,
    0,
    0,
    0,
    0,
    0,
    0,
    0,
    0,
    0,
    0,
    0,
    0,
    0,
    0,
    0,
    0,
    0,
    0,
    0,
    5782,
    5783,
    5784,
    5785,
    0,
    0,
    0,
    0,
    0,
    0,
    0,
    0,
    0,
    0,
    0,
    0,
    0,
    0,
    0,
    0,
    0,
    0,
    0,
    0,
    0,
    0,
    0,
    0,
    0,
    0,
    0,
    0,
    0,
    0,
    0,
    5739,
    5740,
    5741,
    5742,
    5743,
    5744,
    0,
    0,
    0,
    0,
    0,
    0,
    0,
    0,
    0,
    0,
    0,
    0,
    0,
    0,
    0,
    0,
    0,
    0,
    0,
    0,
    0,
    0,
    0,
    0,
    0,
    0,
    0,
    0,
    0,
    0,
    0,
    0,
    0,
    0,
    0,
    0,
    0,
    0,
    0,
    5798,
    5799,
    5800,
    5801,
    0,
    0,
    0,
    0,
    0,
    0,
    0,
    0,
    0,
    0,
    0,
    0,
    0,
    0,
    0,
    0,
    0,
    0,
    0,
    0,
    0,
    0,
    0,
    0,
    0,
    0,
    0,
    0,
    0,
    0,
    0,
    5755,
    5756,
    5757,
    5758,
    5759,
    5760,
    0,
    0,
    0,
    0,
    0,
    0,
    0,
    0,
    0,
    0,
    0,
    0,
    0,
    0,
    0,
    0,
    0,
    0,
    0,
    0,
    0,
    0,
    0,
    0,
    0,
    0,
    0,
    0,
    0,
    0,
    0,
    0,
    0,
    0,
    0,
    0,
    0,
    0,
    0,
    5814,
    5815,
    5816,
    5817,
    0,
    0,
    0,
    0,
    0,
    0,
    0,
    0,
    0,
    0,
    0,
    0,
    0,
    0,
    0,
    0,
    0,
    0,
    0,
    0,
    0,
    0,
    0,
    0,
    0,
    0,
    0,
    0,
    0,
    0,
    0,
    5771,
    5772,
    5773,
    5774,
    5775,
    5776,
    0,
    0,
    0,
    0,
    0,
    0,
    0,
    0,
    0,
    0,
    0,
    0,
    0,
    0,
    0,
    0,
    0,
    0,
    0,
    0,
    0,
    0,
    0,
    0,
    0,
    0,
    0,
    0,
    0,
    0,
    0,
    0,
    0,
    0,
    0,
    0,
    0,
    0,
    0,
    5830,
    5831,
    5832,
    5833,
    0,
    0,
    0,
    0,
    0,
    0,
    0,
    0,
    0,
    0,
    0,
    0,
    0,
    0,
    0,
    0,
    0,
    0,
    0,
    0,
    0,
    0,
    0,
    0,
    0,
    0,
    0,
    0,
    0,
    0,
    0,
    5787,
    5788,
    5789,
    5790,
    5791,
    5792,
    0,
    0,
    0,
    0,
    0,
    0,
    0,
    0,
    0,
    0,
    0,
    0,
    0,
    0,
    0,
    0,
    0,
    0,
    0,
    0,
    0,
    0,
    0,
    0,
    0,
    0,
    0,
    0,
    0,
    0,
    0,
    0,
    0,
    0,
    0,
    0,
    0,
    0,
    0,
    0,
    0,
    0,
    0,
    0,
    0,
    0,
    0,
    0,
    0,
    0,
    0,
    0,
    0,
    0,
    0,
    0,
    0,
    0,
    0,
    0,
    0,
    0,
    0,
    0,
    0,
    0,
    0,
    0,
    0,
    0,
    0,
    0,
    0,
    0,
    5803,
    5804,
    5805,
    5806,
    5807,
    5808,
    0,
    0,
    0,
    0,
    0,
    0,
    0,
    0,
    0,
    0,
    0,
    0,
    0,
    0,
    0,
    0,
    0,
    0,
    0,
    0,
    0,
    0,
    0,
    0,
    0,
    0,
    0,
    0,
    0,
    0,
    0,
    0,
    0,
    0,
    0,
    0,
    0,
    0,
    0,
    0,
    0,
    0,
    0,
    0,
    0,
    0,
    0,
    0,
    0,
    0,
    0,
    0,
    0,
    0,
    0,
    0,
    0,
    0,
    0,
    0,
    0,
    0,
    0,
    0,
    0,
    0,
    0,
    0,
    0,
    0,
    0,
    0,
    0,
    0,
    5819,
    5820,
    5821,
    5822,
    5823,
    5824,
    0,
    0,
    0,
    0,
    0,
    0,
    0,
    0,
    0,
    0,
    0,
    0,
    0,
    0,
    0,
    0,
    0,
    0,
    0,
    0,
    0,
    0,
    0,
    0,
    0,
    0,
    0,
    5498,
    0,
    0,
    0,
    0,
    0,
    0,
    0,
    0,
    0,
    0,
    0,
    0,
    0,
    0,
    0,
    0,
    0,
    0,
    0,
    0,
    0,
    0,
    0,
    0,
    0,
    0,
    0,
    0,
    0,
    0,
    0,
    0,
    0,
    0,
    0,
    0,
    0,
    0,
    0,
    0,
    0,
    0,
    0,
    0,
    0,
    0,
    5835,
    5836,
    5837,
    5838,
    5839,
    5840,
    0,
    0,
    0,
    0,
    0,
    0,
    0,
    0,
    0,
    0,
    0,
    0,
    0,
    0,
    0,
    0,
    0,
    0,
    0,
    0,
    0,
    0,
    0,
    0,
    0,
    0,
    0,
    0,
    0,
    0,
    0,
    0,
    0,
    0,
    0,
    0,
    0,
    0,
    0,
    0,
    0,
    0,
    0,
    0,
    0,
    0,
    0,
    0,
    0,
    0,
    0,
    0,
    0,
    0,
    0,
    0,
    0,
    0,
    0,
    0,
    0,
    0,
    0,
    0,
    0,
    0,
    0,
    0,
    0,
    0,
    0,
    0,
    0,
    0,
    0,
    0,
    0,
    0,
    0,
    0,
    0,
    0,
    0,
    0,
    0,
    0,
    0,
    0,
    0,
    0,
    0,
    0,
    0,
    0,
    0,
    0,
    0,
    0,
    0,
    0,
    0,
    0,
    0,
    0,
    0,
    0,
    5519,
    0,
    0,
    0,
    0,
    0,
    0,
    0,
    0,
    0,
    0,
    0,
    0,
    0,
    0,
    0,
    0,
    0,
    0,
    0,
    0,
    0,
    0,
    0,
    0,
    0,
    0,
    0,
    0,
    0,
    0,
    0,
    0,
    0,
    0,
    0,
    0,
    0,
    0,
    0,
    0,
    0,
    0,
    0,
    0,
    0,
    0,
    0,
    0,
    0,
    0,
    0,
    0,
    0,
    0,
    0,
    0,
    0,
    0,
    0,
    0,
    0,
    0,
    0,
    0,
    0,
    0,
    0,
    0,
    0,
    0,
    0,
    0,
    0,
    0,
    0,
    0,
    0,
    0,
    0,
    5535,
    0,
    0,
    0,
    0,
    0,
    0,
    0,
    0,
    0,
    0,
    0,
    0,
    0,
    0,
    0,
    0,
    0,
    0,
    0,
    0,
    0,
    0,
    0,
    0,
    0,
    0,
    0,
    0,
    0,
    0,
    0,
    0,
    0,
    0,
    0,
    0,
    0,
    0,
    0,
    0,
    0,
    0,
    0,
    0,
    0,
    0,
    0,
    0,
    0,
    0,
    0,
    0,
    0,
    0,
    0,
    0,
    0,
    0,
    0,
    0,
    0,
    0,
    0,
    0,
    0,
    0,
    0,
    0,
    0,
    0,
    0,
    0,
    0,
    0,
    0,
    0,
    0,
    0,
    0,
    5994,
    5844,
    5845,
    0,
    0,
    5972,
    0,
    0,
    0,
    0,
    0,
    0,
    0,
    0,
    0,
    0,
    0,
    0,
    0,
    0,
    0,
    0,
    0,
    0,
    0,
    0,
    0,
    0,
    0,
    0,
    0,
    0,
    0,
    0,
    0,
    0,
    0,
    0,
    0,
    0,
    0,
    0,
    0,
    0,
    0,
    0,
    0,
    0,
    0,
    0,
    0,
    0,
    0,
    0,
    0,
    0,
    0,
    0,
    0,
    0,
    0,
    0,
    0,
    0,
    0,
    0,
    0,
    0,
    0,
    0,
    0,
    0,
    0,
    0,
    0,
    0,
    0,
    0,
    0,
    0,
    0,
    0,
    5861,
    5862,
    5548,
    5549,
    0,
    0,
    0,
    0,
    0,
    0,
    0,
    0,
    0,
    0,
    0,
    0,
    0,
    0,
    0,
    0,
    0,
    0,
    0,
    0,
    0,
    0,
    0,
    0,
    0,
    0,
    0,
    0,
    0,
    0,
    0,
    0,
    0,
    0,
    0,
    0,
    0,
    0,
    0,
    0,
    0,
    0,
    0,
    0,
    0,
    0,
    0,
    0,
    0,
    0,
    0,
    0,
    0,
    0,
    0,
    0,
    0,
    0,
    0,
    0,
    0,
    0,
    0,
    0,
    0,
    0,
    0,
    0,
    0,
    0,
    0,
    0,
    0,
    0,
    0,
    0,
    0,
    0,
    0,
    5565,
    0,
    0,
    0,
    0,
    0,
    0,
    0,
    0,
    0,
    0,
    0,
    0,
    0,
    0,
    0,
    0,
    0,
    0,
    0,
    0,
    0,
    0,
    0,
    0,
    0,
    0,
    0,
    0,
    0,
    0,
    0,
    0,
    0,
    0,
    0,
    0,
    0,
    0,
    0,
    0,
    0,
    0,
    0,
    0,
    0,
    0,
    0,
    0,
    0,
    0,
    0,
    0,
    0,
    0,
    0,
    0,
    0,
    0,
    0,
    0,
    0,
    0,
    0,
    0,
    0,
    0,
    0,
    0,
    0,
    0,
    0,
    0,
    0,
    0,
    0,
    0,
    0,
    0,
    0,
    0,
    0,
    0,
    0,
    0,
    0,
    0,
    0,
    0,
    0,
    0,
    0,
    0,
    0,
    0,
    0,
    0,
    0,
    0,
    0,
    0,
    0,
    0,
    0,
    0,
    0,
    0,
    0,
    0,
    0,
    0,
    0,
    0,
    0,
    0,
    0,
    0,
    0,
    0,
    0,
    0,
    0,
    0,
    0,
    0,
    0,
    0,
    0,
    0,
    0,
    0,
    0,
    0,
    0,
    0,
    0,
    0,
    0,
    0,
    0,
    0,
    0,
    0,
    0,
    0,
    0,
    0,
    0,
    0,
    0,
    0,
    0,
    0,
    0,
    0,
    0,
    0,
    0,
    0,
    0,
    0,
    0,
    0,
    0,
    0,
    0,
    0,
    0,
    0,
    0,
    0,
    0,
    0,
    0,
    0,
    0,
    0,
    0,
    0,
    0,
    0,
    0,
    0,
    0,
    0,
    0,
    0,
    0,
    0,
    0,
    0,
    0,
    0,
    0,
    0,
    0,
    0,
    0,
    0,
    0,
    0,
    0,
    0,
    0,
    0,
    0,
    0,
    0,
    0,
    0,
    0,
    0,
    0,
    0,
    0,
    0,
    0,
    0,
    0,
    0,
    0,
    0,
    0,
    0,
    0,
    0,
    0,
    0,
    0,
    0,
    0,
    0,
    0,
    0,
    0,
    0,
    0,
    0,
    0,
    0,
    0,
    0,
    0,
    0,
    0,
    0,
    0,
    0,
    0,
    0,
    0,
    0,
    0,
    0,
    0,
    0,
    0,
    0,
    0,
    0,
    0,
    0,
    0,
    0,
    0,
    0,
    0,
    0,
    0,
    0,
    0,
    0,
    0,
    0,
    0,
    0,
    0,
    0,
    0,
    0,
    0,
    0,
    0,
    0,
    0,
    0,
    0,
    0,
    0,
    0,
    0,
    0,
    0,
    0,
    0,
    0,
    0,
    0,
    0,
    0,
    0,
    0,
    0,
    0,
    0,
    0,
    0,
    0,
    0,
    0,
    0,
    0,
    0,
    0,
    0,
    0,
    0,
    0,
    0,
    0,
    0,
    0,
    0,
    0,
    0,
    0,
    0,
    0,
    0,
    0,
    0,
    0,
    0,
    0,
    0,
    0,
    0,
    0,
    0,
    0,
    0,
    0,
    0,
    0,
    0,
    0,
    0,
    0,
    0,
    0,
    0,
    0,
    0,
    0,
    0,
    0,
    0,
    0,
    0,
    0,
    0,
    0,
    0,
    0,
    0,
    0,
    0,
    0,
    0,
    0,
    0,
    0,
    0,
    0,
    0,
    0,
    0,
    0,
    0,
    0,
    0,
    0,
    0,
    0,
    0,
    0,
    0,
    0,
    0,
    0,
    0,
    0,
    0,
    0,
    0,
    0,
    0,
    0,
    0,
    0,
    0,
    0,
    0,
    0,
    0,
    0,
    0,
    0,
    0,
    0,
    0,
    0,
    0,
    0,
    0,
    0,
    0,
    0,
    0,
    0,
    0,
    0,
    0,
    0,
    0,
    0,
    0,
    0,
    0,
    0,
    0,
    0,
    0,
    0,
    0,
    0,
    0,
    0,
    0,
    0,
    0,
    0,
    0,
    0,
    0,
    0,
    0,
    0,
    0,
    0,
    0,
    0,
    0,
    0,
    0,
    0,
    0,
    0,
    0,
    0,
    0,
    0,
    0,
    0,
    0,
    0,
    0,
    0,
    0,
    0,
    0,
    0,
    0,
    0,
    0,
    0,
    0,
    0,
    0,
    0,
    0,
    0,
    0,
    0,
    0,
    0,
    0,
    0,
    0,
    0,
    0,
    0,
    0,
    0,
    0,
    0,
    0,
    0,
    0,
    0,
    0,
    0,
    0,
    0,
    0,
    0,
    0,
    0,
    0,
    0,
    0,
    0,
    0,
    0,
    0,
    0,
    0,
    0,
    0,
    0,
    0,
    0,
    0,
    0,
    0,
    0,
    0,
    0,
    0,
    0,
    0,
    0,
    0,
    0,
    0,
    0,
    0,
    0,
    0,
    0,
    0,
    0,
    0,
    0,
    0,
    0,
    0,
    0,
    0,
    0,
    0,
    0,
    0,
    0,
    0,
    0,
    0,
    0,
    0,
    0,
    0,
    0,
    0,
    0,
    0,
    0,
    0,
    0,
    0,
    0,
    0,
    0,
    0,
    0,
    0,
    0,
    0,
    0,
    0,
    0,
    0,
    0,
    0,
    0,
    0,
    0,
    0,
    0,
    0,
    0,
    0,
    0,
    0,
    0,
    0,
    0,
    0,
    0,
    0,
    0,
    0,
    0,
    0,
    0,
    0,
    0,
    0,
    0,
    0,
    0,
    0,
    0,
    0,
    0,
    0,
    0,
    0,
    0,
    0,
    0,
    0,
    0,
    0,
    0,
    0,
    0,
    0,
    0,
    0,
    0,
    0,
    0,
    0,
    0,
    0,
    0,
    0,
    0,
    0,
    0,
    0,
    0,
    0,
    0,
    0,
    0,
    0,
    0,
    0,
    0,
    0,
    0,
    0,
    0,
    0,
    0,
    0,
    0,
    0,
    0,
    0,
    0,
    0,
    0,
    0,
    0,
    0,
    0
   ]
  }
 ]
}